(.../pcb-gcode-3.6.2.4/pcb-gcode.ulp)
(Copyright 2005 - 2012 by John Johnson)
(See readme.txt for licensing terms.)
(This file generated from the board:)
(.../TIP120_breakout/TIP120_breakout.brd)
(Current profile is .../pcb-gcode-3.6.2.4/profiles/mach.pp  )
(This file generated 24/08/2017 23:10)
(Settings from pcb-machine.h)
(spindle on time = 3.0000)
(  Tool Size)
(0.4000  )
(spindle speed = 30000.0000)
(tool change at 0.0000  0.0000  25.4000 )
(feed rate xy = F80    )
(feed rate z  = F254   )
(Z Axis Settings)
(  High     Up        Down     Drill)
(12.7000 	10.0000 	-0.1000 	-1.5000 )
(Settings from pcb-defaults.h)
(isolate min = 0.0010)
(isolate max = 0.0200)
(isolate step = 0.2000)
(Generated top outlines, top drill, )
(Unit of measure: mm)
(Metric Mode)
G21
(Absolute Coordinates)
G90
S30000
G00 Z12.7000 
G00 X0.0000  Y0.0000  
M03
G04 P3.000000
G00 Z10.0000 
G00 X0.3920  Y0.5085  
G01 Z-0.1000 F254   
G01 X0.3005  Y0.6454  F80    
G01 X0.2375  Y0.7975  
G01 X0.2054  Y0.9591  
G01 X0.2054  Y65.0809 
G01 X0.2375  Y65.2425 
G01 X0.3005  Y65.3946 
G01 X0.3920  Y65.5315 
G01 X0.5085  Y65.6480 
G01 X0.6454  Y65.7395 
G01 X0.7975  Y65.8025 
G01 X0.9591  Y65.8346 
G01 X84.0409 Y65.8346 
G01 X84.2024 Y65.8025 
G01 X84.3546 Y65.7395 
G01 X84.4915 Y65.6480 
G01 X84.6080 Y65.5315 
G01 X84.6994 Y65.3946 
G01 X84.7625 Y65.2425 
G01 X84.7946 Y65.0809 
G01 X84.7946 Y1.1237  
G01 X84.7946 Y0.9591  
G01 X84.7625 Y0.7975  
G01 X84.6994 Y0.6454  
G01 X84.6080 Y0.5085  
G01 X84.4915 Y0.3920  
G01 X84.3546 Y0.3005  
G01 X84.2024 Y0.2375  
G01 X84.0409 Y0.2054  
G01 X0.9591  Y0.2054  
G01 X0.7975  Y0.2375  
G01 X0.6454  Y0.3005  
G01 X0.5085  Y0.3920  
G01 X0.3920  Y0.5085  
G00 Z10.0000 
G00 X5.7839  Y3.0975  
G01 Z-0.1000 F254   
G01 X6.0928  Y2.9696  F80    
G01 X72.4672 Y2.9696  
G01 X72.7760 Y3.0975  
G01 X73.8702 Y4.1917  
G01 X74.2825 Y4.6040  
G01 X74.4104 Y4.9128  
G01 X74.4104 Y6.9400  
G01 X74.4425 Y7.1015  
G01 X74.5055 Y7.2536  
G01 X74.5970 Y7.3906  
G01 X74.8221 Y7.6157  
G01 X74.8534 Y7.6911  
G01 X74.8534 Y8.6213  
G01 X74.8855 Y8.7829  
G01 X74.9485 Y8.9350  
G01 X75.0400 Y9.0719  
G01 X75.4101 Y9.4420  
G01 X75.5574 Y9.7976  
G01 X75.5574 Y13.6459 
G01 X75.5895 Y13.8074 
G01 X75.6525 Y13.9596 
G01 X75.7440 Y14.0965 
G01 X75.8605 Y14.2130 
G01 X75.9974 Y14.3044 
G01 X76.1495 Y14.3675 
G01 X76.3111 Y14.3996 
G01 X80.0872 Y14.3996 
G01 X80.3960 Y14.5275 
G01 X80.6918 Y14.8233 
G01 X81.9025 Y16.0339 
G01 X82.0304 Y16.3428 
G01 X82.0304 Y61.0002 
G01 X81.9025 Y61.3090 
G01 X80.5543 Y62.6572 
G01 X80.1420 Y63.0695 
G01 X79.8332 Y63.1974 
G01 X6.2198  Y63.1974 
G01 X5.9109  Y63.0695 
G01 X4.6898  Y61.8483 
G01 X4.2775  Y61.4360 
G01 X4.1496  Y61.1272 
G01 X4.1496  Y57.1517 
G01 X4.1175  Y56.9902 
G01 X4.0545  Y56.8380 
G01 X3.9630  Y56.7011 
G01 X3.8342  Y56.5723 
G01 X3.6266  Y56.0712 
G01 X3.6266  Y55.5288 
G01 X3.8342  Y55.0277 
G01 X4.2177  Y54.6442 
G01 X4.7188  Y54.4366 
G01 X5.2612  Y54.4366 
G01 X5.7623  Y54.6442 
G01 X6.1458  Y55.0277 
G01 X6.3534  Y55.5288 
G01 X6.3534  Y56.0712 
G01 X6.1458  Y56.5723 
G01 X6.1335  Y56.5847 
G01 X6.0170  Y56.7011 
G01 X5.9255  Y56.8380 
G01 X5.8625  Y56.9902 
G01 X5.8304  Y57.1517 
G01 X5.8304  Y60.3479 
G01 X5.8625  Y60.5095 
G01 X5.9255  Y60.6616 
G01 X6.0170  Y60.7985 
G01 X6.4320  Y61.2135 
G01 X6.5485  Y61.3300 
G01 X6.6854  Y61.4215 
G01 X6.8375  Y61.4845 
G01 X6.9990  Y61.5166 
G01 X17.3659 Y61.5166 
G01 X17.5275 Y61.4845 
G01 X17.6796 Y61.4215 
G01 X17.8165 Y61.3300 
G01 X17.9330 Y61.2135 
G01 X18.0245 Y61.0766 
G01 X18.0875 Y60.9245 
G01 X18.1196 Y60.7629 
G01 X18.1196 Y59.1381 
G01 X18.0875 Y58.9766 
G01 X18.0245 Y58.8245 
G01 X18.0208 Y58.8190 
G01 X17.9330 Y58.6876 
G01 X17.8165 Y58.5711 
G01 X17.8138 Y58.5693 
G01 X17.6903 Y58.4868 
G01 X17.6279 Y58.4243 
G01 X17.5966 Y58.3489 
G01 X17.5966 Y57.2390 
G01 X17.5645 Y57.0775 
G01 X17.5014 Y56.9254 
G01 X17.4100 Y56.7885 
G01 X16.9775 Y56.3560 
G01 X16.8496 Y56.0472 
G01 X16.8496 Y52.0102 
G01 X16.8237 Y51.8799 
G01 X16.8175 Y51.8487 
G01 X16.7877 Y51.7768 
G01 X16.7544 Y51.6966 
G01 X16.7495 Y51.6892 
G01 X16.6630 Y51.5597 
G01 X16.6189 Y51.5156 
G01 X16.4266 Y51.0513 
G01 X16.4266 Y50.5487 
G01 X16.6189 Y50.0843 
G01 X16.9743 Y49.7289 
G01 X17.3015 Y49.5934 
G01 X17.4536 Y49.5304 
G01 X17.4591 Y49.5267 
G01 X17.5906 Y49.4389 
G01 X17.7070 Y49.3225 
G01 X17.7985 Y49.1855 
G01 X17.8003 Y49.1812 
G01 X17.8615 Y49.0334 
G01 X17.8936 Y48.8719 
G01 X17.8936 Y48.7072 
G01 X17.8615 Y48.5457 
G01 X17.7990 Y48.3948 
G01 X17.7386 Y48.2490 
G01 X17.7386 Y45.7310 
G01 X17.9245 Y45.2821 
G01 X17.9435 Y45.2632 
G01 X18.0600 Y45.1467 
G01 X18.1219 Y45.0540 
G01 X18.1514 Y45.0098 
G01 X18.1630 Y44.9819 
G01 X18.2145 Y44.8577 
G01 X18.2466 Y44.6961 
G01 X18.2466 Y43.0381 
G01 X18.3552 Y42.7759 
G01 X19.4494 Y41.6817 
G01 X19.8163 Y41.3148 
G01 X19.9328 Y41.1983 
G01 X19.9644 Y41.1511 
G01 X20.0243 Y41.0614 
G01 X20.0873 Y40.9093 
G01 X20.1194 Y40.7477 
G01 X20.1194 Y40.5831 
G01 X20.1127 Y40.5491 
G01 X20.0873 Y40.4215 
G01 X20.0243 Y40.2694 
G01 X19.9365 Y40.1380 
G01 X19.9328 Y40.1325 
G01 X19.8163 Y40.0160 
G01 X19.7691 Y39.9845 
G01 X19.6794 Y39.9245 
G01 X19.5273 Y39.8615 
G01 X19.3658 Y39.8294 
G01 X16.5890 Y39.8294 
G01 X16.4275 Y39.8615 
G01 X16.2753 Y39.9245 
G01 X16.1820 Y39.9869 
G01 X16.1384 Y40.0160 
G01 X16.0219 Y40.1325 
G01 X15.9305 Y40.2694 
G01 X15.8674 Y40.4215 
G01 X15.8413 Y40.5528 
G01 X15.8353 Y40.5831 
G01 X15.8353 Y40.7477 
G01 X15.8674 Y40.9093 
G01 X15.9305 Y41.0614 
G01 X15.9928 Y41.1547 
G01 X16.0219 Y41.1983 
G01 X16.0306 Y41.2069 
G01 X16.1384 Y41.3148 
G01 X16.2698 Y41.4462 
G01 X16.2698 Y42.3738 
G01 X15.6138 Y43.0298 
G01 X14.6862 Y43.0298 
G01 X14.5934 Y42.9370 
G01 X14.4565 Y42.8455 
G01 X14.3043 Y42.7825 
G01 X14.1428 Y42.7504 
G01 X13.6172 Y42.7504 
G01 X13.4557 Y42.7825 
G01 X13.3035 Y42.8455 
G01 X13.1666 Y42.9370 
G01 X13.0738 Y43.0298 
G01 X12.1462 Y43.0298 
G01 X12.0534 Y42.9370 
G01 X11.9165 Y42.8455 
G01 X11.7643 Y42.7825 
G01 X11.6028 Y42.7504 
G01 X5.5068  Y42.7504 
G01 X5.3453  Y42.7825 
G01 X5.2288  Y42.8308 
G01 X5.1932  Y42.8455 
G01 X5.0993  Y42.9083 
G01 X5.0563  Y42.9370 
G01 X4.9971  Y42.9962 
G01 X4.9398  Y43.0535 
G01 X4.8483  Y43.1904 
G01 X4.7853  Y43.3426 
G01 X4.7658  Y43.4407 
G01 X4.7532  Y43.5041 
G01 X4.7532  Y43.6140 
G01 X4.6051  Y43.6140 
G01 X4.5128  Y43.5217 
G01 X4.3578  Y43.4091 
G01 X4.1872  Y43.3222 
G01 X4.0050  Y43.2630 
G01 X3.8158  Y43.2330 
G01 X3.6242  Y43.2330 
G01 X3.4350  Y43.2630 
G01 X3.2528  Y43.3222 
G01 X3.0821  Y43.4091 
G01 X2.9272  Y43.5217 
G01 X2.8349  Y43.6140 
G01 X2.8161  Y43.6140 
G01 X2.8177  Y43.6107 
G01 X2.8330  Y43.5878 
G01 X2.8541  Y43.5370 
G01 X2.8784  Y43.4877 
G01 X2.8855  Y43.4611 
G01 X2.8960  Y43.4356 
G01 X2.9068  Y43.3817 
G01 X2.9210  Y43.3286 
G01 X2.9228  Y43.3011 
G01 X2.9282  Y43.2741 
G01 X2.9282  Y43.2192 
G01 X2.9318  Y43.1643 
G01 X2.9282  Y43.1370 
G01 X2.9282  Y43.1094 
G01 X2.9174  Y43.0555 
G01 X2.9103  Y43.0010 
G01 X2.9014  Y42.9749 
G01 X2.8960  Y42.9479 
G01 X2.8750  Y42.8971 
G01 X2.8573  Y42.8451 
G01 X2.8436  Y42.8212 
G01 X2.8330  Y42.7958 
G01 X2.8025  Y42.7501 
G01 X2.7750  Y42.7025 
G01 X2.7568  Y42.6818 
G01 X2.7415  Y42.6588 
G01 X2.7027  Y42.6200 
G01 X2.6825  Y42.5970 
G01 X2.4986  Y42.1529 
G01 X2.4986  Y41.6670 
G01 X2.6845  Y41.2181 
G01 X2.7298  Y41.1729 
G01 X2.8212  Y41.0360 
G01 X2.8555  Y40.9532 
G01 X2.8843  Y40.8839 
G01 X2.8912  Y40.8490 
G01 X2.9164  Y40.7223 
G01 X2.9164  Y40.5577 
G01 X2.9046  Y40.4984 
G01 X2.8843  Y40.3962 
G01 X2.8213  Y40.2440 
G01 X2.7298  Y40.1071 
G01 X2.6845  Y40.0619 
G01 X2.4986  Y39.6129 
G01 X2.4986  Y39.1270 
G01 X2.6845  Y38.6781 
G01 X2.7298  Y38.6329 
G01 X2.8212  Y38.4960 
G01 X2.8555  Y38.4132 
G01 X2.8843  Y38.3439 
G01 X2.8912  Y38.3090 
G01 X2.9164  Y38.1823 
G01 X2.9164  Y38.0177 
G01 X2.9046  Y37.9584 
G01 X2.8843  Y37.8562 
G01 X2.8213  Y37.7040 
G01 X2.7298  Y37.5671 
G01 X2.6845  Y37.5219 
G01 X2.4986  Y37.0729 
G01 X2.4986  Y36.5870 
G01 X2.6845  Y36.1381 
G01 X2.7298  Y36.0929 
G01 X2.8212  Y35.9560 
G01 X2.8555  Y35.8732 
G01 X2.8843  Y35.8039 
G01 X2.8912  Y35.7690 
G01 X2.9164  Y35.6424 
G01 X2.9164  Y35.4777 
G01 X2.9046  Y35.4184 
G01 X2.8843  Y35.3162 
G01 X2.8213  Y35.1640 
G01 X2.7298  Y35.0271 
G01 X2.6845  Y34.9819 
G01 X2.4986  Y34.5329 
G01 X2.4986  Y34.0470 
G01 X2.6845  Y33.5981 
G01 X2.7298  Y33.5529 
G01 X2.8212  Y33.4160 
G01 X2.8555  Y33.3332 
G01 X2.8843  Y33.2639 
G01 X2.8912  Y33.2290 
G01 X2.9164  Y33.1024 
G01 X2.9164  Y32.9377 
G01 X2.9046  Y32.8784 
G01 X2.8843  Y32.7762 
G01 X2.8213  Y32.6240 
G01 X2.7298  Y32.4871 
G01 X2.6845  Y32.4419 
G01 X2.4986  Y31.9929 
G01 X2.4986  Y31.5070 
G01 X2.6845  Y31.0581 
G01 X2.7298  Y31.0129 
G01 X2.8212  Y30.8760 
G01 X2.8555  Y30.7932 
G01 X2.8843  Y30.7239 
G01 X2.8912  Y30.6890 
G01 X2.9164  Y30.5623 
G01 X2.9164  Y30.3977 
G01 X2.9046  Y30.3384 
G01 X2.8843  Y30.2362 
G01 X2.8213  Y30.0840 
G01 X2.7298  Y29.9471 
G01 X2.6845  Y29.9019 
G01 X2.4986  Y29.4529 
G01 X2.4986  Y28.9670 
G01 X2.6845  Y28.5181 
G01 X2.7298  Y28.4729 
G01 X2.8212  Y28.3360 
G01 X2.8555  Y28.2532 
G01 X2.8843  Y28.1839 
G01 X2.8912  Y28.1490 
G01 X2.9164  Y28.0223 
G01 X2.9164  Y27.8577 
G01 X2.9046  Y27.7984 
G01 X2.8843  Y27.6962 
G01 X2.8213  Y27.5440 
G01 X2.7298  Y27.4071 
G01 X2.6845  Y27.3619 
G01 X2.4986  Y26.9129 
G01 X2.4986  Y26.4270 
G01 X2.6845  Y25.9781 
G01 X2.7298  Y25.9329 
G01 X2.8212  Y25.7960 
G01 X2.8555  Y25.7132 
G01 X2.8843  Y25.6439 
G01 X2.8912  Y25.6090 
G01 X2.9164  Y25.4824 
G01 X2.9164  Y25.3177 
G01 X2.9046  Y25.2584 
G01 X2.8843  Y25.1562 
G01 X2.8213  Y25.0040 
G01 X2.7298  Y24.8671 
G01 X2.6845  Y24.8219 
G01 X2.4986  Y24.3729 
G01 X2.4986  Y23.8870 
G01 X2.6825  Y23.4430 
G01 X2.7027  Y23.4200 
G01 X2.7415  Y23.3811 
G01 X2.7568  Y23.3582 
G01 X2.7750  Y23.3375 
G01 X2.8025  Y23.2899 
G01 X2.8330  Y23.2442 
G01 X2.8436  Y23.2188 
G01 X2.8573  Y23.1949 
G01 X2.8750  Y23.1428 
G01 X2.8960  Y23.0921 
G01 X2.9014  Y23.0651 
G01 X2.9103  Y23.0390 
G01 X2.9174  Y22.9845 
G01 X2.9282  Y22.9306 
G01 X2.9282  Y22.9030 
G01 X2.9318  Y22.8757 
G01 X2.9282  Y22.8208 
G01 X2.9282  Y22.7659 
G01 X2.9228  Y22.7389 
G01 X2.9210  Y22.7114 
G01 X2.9068  Y22.6583 
G01 X2.8960  Y22.6044 
G01 X2.8855  Y22.5789 
G01 X2.8784  Y22.5523 
G01 X2.8541  Y22.5030 
G01 X2.8330  Y22.4522 
G01 X2.8177  Y22.4293 
G01 X2.8161  Y22.4260 
G01 X2.8349  Y22.4260 
G01 X2.9272  Y22.5183 
G01 X3.0821  Y22.6309 
G01 X3.2528  Y22.7178 
G01 X3.4350  Y22.7770 
G01 X3.6242  Y22.8070 
G01 X3.8158  Y22.8070 
G01 X4.0050  Y22.7770 
G01 X4.1872  Y22.7178 
G01 X4.3578  Y22.6309 
G01 X4.5128  Y22.5183 
G01 X4.6051  Y22.4260 
G01 X4.7532  Y22.4260 
G01 X4.7532  Y22.5359 
G01 X4.7588  Y22.5643 
G01 X4.7853  Y22.6974 
G01 X4.8483  Y22.8496 
G01 X4.9362  Y22.9810 
G01 X4.9398  Y22.9865 
G01 X5.0563  Y23.1030 
G01 X5.1035  Y23.1345 
G01 X5.1932  Y23.1944 
G01 X5.3453  Y23.2575 
G01 X5.5069  Y23.2896 
G01 X11.6028 Y23.2896 
G01 X11.7643 Y23.2575 
G01 X11.9165 Y23.1944 
G01 X12.0534 Y23.1030 
G01 X12.1462 Y23.0102 
G01 X13.0738 Y23.0102 
G01 X13.1666 Y23.1030 
G01 X13.3035 Y23.1944 
G01 X13.4557 Y23.2575 
G01 X13.6172 Y23.2896 
G01 X15.4128 Y23.2896 
G01 X15.5743 Y23.2575 
G01 X15.7265 Y23.1944 
G01 X15.8634 Y23.1030 
G01 X15.9562 Y23.0102 
G01 X16.8838 Y23.0102 
G01 X17.5398 Y23.6662 
G01 X17.5398 Y24.5938 
G01 X16.8838 Y25.2498 
G01 X16.3154 Y25.2498 
G01 X16.1539 Y25.2819 
G01 X16.0189 Y25.3378 
G01 X16.0018 Y25.3449 
G01 X15.9539 Y25.3769 
G01 X15.8648 Y25.4364 
G01 X15.7484 Y25.5529 
G01 X15.7011 Y25.6236 
G01 X15.6569 Y25.6898 
G01 X15.5939 Y25.8420 
G01 X15.5742 Y25.9410 
G01 X15.5618 Y26.0035 
G01 X15.5618 Y26.1681 
G01 X15.5939 Y26.3297 
G01 X15.6498 Y26.4646 
G01 X15.6569 Y26.4818 
G01 X15.6889 Y26.5297 
G01 X15.7484 Y26.6187 
G01 X15.7530 Y26.6233 
G01 X15.8648 Y26.7352 
G01 X16.0381 Y26.9084 
G01 X16.0427 Y26.9130 
G01 X16.1079 Y26.9566 
G01 X16.1796 Y27.0044 
G01 X16.3317 Y27.0675 
G01 X16.4272 Y27.0865 
G01 X16.4932 Y27.0996 
G01 X28.2879 Y27.0996 
G01 X28.4494 Y27.0675 
G01 X28.6016 Y27.0044 
G01 X28.7385 Y26.9130 
G01 X28.8550 Y26.7965 
G01 X28.9464 Y26.6596 
G01 X29.0095 Y26.5074 
G01 X29.0416 Y26.3459 
G01 X29.0416 Y25.5182 
G01 X29.0095 Y25.3567 
G01 X28.9464 Y25.2045 
G01 X28.8550 Y25.0676 
G01 X28.3812 Y24.5938 
G01 X28.3812 Y23.6662 
G01 X29.0372 Y23.0102 
G01 X29.9648 Y23.0102 
G01 X30.0681 Y23.1135 
G01 X30.1846 Y23.2300 
G01 X30.3215 Y23.3214 
G01 X30.4737 Y23.3845 
G01 X30.6352 Y23.4166 
G01 X31.7958 Y23.4166 
G01 X31.9573 Y23.3845 
G01 X32.1095 Y23.3214 
G01 X32.2464 Y23.2300 
G01 X32.3628 Y23.1135 
G01 X32.4662 Y23.0102 
G01 X33.3938 Y23.0102 
G01 X34.0498 Y23.6662 
G01 X34.0498 Y24.5938 
G01 X33.3938 Y25.2498 
G01 X32.4662 Y25.2498 
G01 X32.3628 Y25.1465 
G01 X32.2464 Y25.0300 
G01 X32.1095 Y24.9385 
G01 X31.9573 Y24.8755 
G01 X31.7958 Y24.8434 
G01 X30.7141 Y24.8434 
G01 X30.5525 Y24.8755 
G01 X30.4004 Y24.9385 
G01 X30.2635 Y25.0300 
G01 X30.1470 Y25.1465 
G01 X30.0555 Y25.2834 
G01 X29.9925 Y25.4355 
G01 X29.9604 Y25.5971 
G01 X29.9604 Y27.1424 
G01 X29.8905 Y27.3112 
G01 X29.8200 Y27.3817 
G01 X29.7285 Y27.5186 
G01 X29.6655 Y27.6707 
G01 X29.6586 Y27.7056 
G01 X29.6334 Y27.8322 
G01 X29.6334 Y27.9969 
G01 X29.6529 Y28.0951 
G01 X29.6655 Y28.1584 
G01 X29.6815 Y28.1972 
G01 X29.7285 Y28.3106 
G01 X29.7309 Y28.3142 
G01 X29.8200 Y28.4475 
G01 X29.9364 Y28.5640 
G01 X30.0734 Y28.6554 
G01 X30.2255 Y28.7185 
G01 X30.2603 Y28.7254 
G01 X30.3870 Y28.7506 
G01 X44.4138 Y28.7506 
G01 X44.5753 Y28.7185 
G01 X44.7274 Y28.6554 
G01 X44.8643 Y28.5640 
G01 X45.3650 Y28.0633 
G01 X45.4564 Y27.9264 
G01 X45.5195 Y27.7743 
G01 X45.5516 Y27.6128 
G01 X45.5516 Y25.5182 
G01 X45.5195 Y25.3567 
G01 X45.4564 Y25.2045 
G01 X45.4528 Y25.1990 
G01 X45.3650 Y25.0676 
G01 X45.3528 Y25.0554 
G01 X45.2485 Y24.9511 
G01 X44.8912 Y24.5938 
G01 X44.8912 Y23.6662 
G01 X45.5472 Y23.0102 
G01 X46.4748 Y23.0102 
G01 X46.5781 Y23.1135 
G01 X46.6946 Y23.2300 
G01 X46.7418 Y23.2615 
G01 X46.8315 Y23.3214 
G01 X46.9837 Y23.3845 
G01 X47.1452 Y23.4166 
G01 X48.3058 Y23.4166 
G01 X48.4673 Y23.3845 
G01 X48.6195 Y23.3214 
G01 X48.7128 Y23.2591 
G01 X48.7564 Y23.2300 
G01 X48.7646 Y23.2218 
G01 X48.8728 Y23.1135 
G01 X48.9762 Y23.0102 
G01 X49.9038 Y23.0102 
G01 X50.5598 Y23.6662 
G01 X50.5598 Y24.5938 
G01 X49.9038 Y25.2498 
G01 X48.9762 Y25.2498 
G01 X48.8728 Y25.1465 
G01 X48.7564 Y25.0300 
G01 X48.7091 Y24.9985 
G01 X48.6195 Y24.9385 
G01 X48.4673 Y24.8755 
G01 X48.3058 Y24.8434 
G01 X47.2241 Y24.8434 
G01 X47.0625 Y24.8755 
G01 X46.9104 Y24.9385 
G01 X46.7735 Y25.0300 
G01 X46.6570 Y25.1465 
G01 X46.5655 Y25.2834 
G01 X46.5025 Y25.4355 
G01 X46.4704 Y25.5971 
G01 X46.4704 Y28.1584 
G01 X46.4005 Y28.3272 
G01 X46.2119 Y28.5158 
G01 X45.1282 Y29.5995 
G01 X44.8523 Y29.7137 
G01 X44.7807 Y29.7616 
G01 X44.7154 Y29.8052 
G01 X44.5989 Y29.9217 
G01 X44.5074 Y30.0586 
G01 X44.4444 Y30.2107 
G01 X44.4123 Y30.3723 
G01 X44.4123 Y30.5369 
G01 X44.4191 Y30.5709 
G01 X44.4444 Y30.6984 
G01 X44.5074 Y30.8506 
G01 X44.5553 Y30.9222 
G01 X44.5989 Y30.9875 
G01 X44.7154 Y31.1040 
G01 X44.8523 Y31.1955 
G01 X45.0044 Y31.2585 
G01 X45.1660 Y31.2906 
G01 X60.6698 Y31.2906 
G01 X60.8313 Y31.2585 
G01 X60.9834 Y31.1955 
G01 X61.1203 Y31.1040 
G01 X61.8855 Y30.3388 
G01 X62.0020 Y30.2223 
G01 X62.0934 Y30.0854 
G01 X62.1565 Y29.9333 
G01 X62.1886 Y29.7718 
G01 X62.1886 Y25.5182 
G01 X62.1565 Y25.3567 
G01 X62.0934 Y25.2045 
G01 X62.0020 Y25.0676 
G01 X61.5282 Y24.5938 
G01 X61.5282 Y23.6662 
G01 X62.1842 Y23.0102 
G01 X63.1118 Y23.0102 
G01 X63.2152 Y23.1135 
G01 X63.3316 Y23.2300 
G01 X63.4685 Y23.3214 
G01 X63.6207 Y23.3845 
G01 X63.7822 Y23.4166 
G01 X64.8158 Y23.4166 
G01 X64.9773 Y23.3845 
G01 X65.1295 Y23.3214 
G01 X65.2664 Y23.2300 
G01 X65.4862 Y23.0102 
G01 X66.4138 Y23.0102 
G01 X67.0698 Y23.6662 
G01 X67.0698 Y24.5938 
G01 X66.4138 Y25.2498 
G01 X65.4862 Y25.2498 
G01 X65.2664 Y25.0300 
G01 X65.1295 Y24.9385 
G01 X64.9773 Y24.8755 
G01 X64.8158 Y24.8434 
G01 X63.8611 Y24.8434 
G01 X63.6995 Y24.8755 
G01 X63.5474 Y24.9385 
G01 X63.4105 Y25.0300 
G01 X63.2940 Y25.1465 
G01 X63.2025 Y25.2834 
G01 X63.1395 Y25.4355 
G01 X63.1074 Y25.5971 
G01 X63.1074 Y30.3174 
G01 X63.0375 Y30.4862 
G01 X62.8489 Y30.6748 
G01 X61.3842 Y32.1395 
G01 X61.0781 Y32.2663 
G01 X61.0128 Y32.3099 
G01 X60.9412 Y32.3577 
G01 X60.8247 Y32.4742 
G01 X60.7775 Y32.5449 
G01 X60.7332 Y32.6111 
G01 X60.6702 Y32.7633 
G01 X60.6505 Y32.8623 
G01 X60.6381 Y32.9248 
G01 X60.6381 Y33.0894 
G01 X60.6512 Y33.1555 
G01 X60.6702 Y33.2510 
G01 X60.7332 Y33.4031 
G01 X60.7769 Y33.4684 
G01 X60.8247 Y33.5400 
G01 X60.9412 Y33.6565 
G01 X61.0119 Y33.7037 
G01 X61.0781 Y33.7480 
G01 X61.4465 Y33.9005 
G01 X61.6350 Y34.0891 
G01 X62.7324 Y35.1865 
G01 X62.8489 Y35.3029 
G01 X63.0375 Y35.4915 
G01 X63.1074 Y35.6604 
G01 X63.1074 Y40.0365 
G01 X63.1395 Y40.1981 
G01 X63.2025 Y40.3502 
G01 X63.2940 Y40.4871 
G01 X63.4105 Y40.6036 
G01 X63.5474 Y40.6951 
G01 X63.6995 Y40.7581 
G01 X63.8611 Y40.7902 
G01 X65.1438 Y40.7902 
G01 X65.7998 Y41.4462 
G01 X65.7998 Y42.3738 
G01 X65.1438 Y43.0298 
G01 X64.2162 Y43.0298 
G01 X64.1969 Y43.0105 
G01 X64.1042 Y42.9486 
G01 X64.0600 Y42.9191 
G01 X64.0321 Y42.9075 
G01 X63.9079 Y42.8560 
G01 X63.7463 Y42.8239 
G01 X63.5817 Y42.8239 
G01 X63.5156 Y42.8371 
G01 X63.4202 Y42.8560 
G01 X63.2680 Y42.9191 
G01 X63.1964 Y42.9669 
G01 X63.1311 Y43.0105 
G01 X63.1118 Y43.0298 
G01 X62.1842 Y43.0298 
G01 X61.5282 Y42.3738 
G01 X61.5282 Y41.4462 
G01 X61.8855 Y41.0888 
G01 X62.0020 Y40.9724 
G01 X62.0934 Y40.8355 
G01 X62.0953 Y40.8311 
G01 X62.1565 Y40.6833 
G01 X62.1886 Y40.5218 
G01 X62.1886 Y36.2060 
G01 X62.1565 Y36.0445 
G01 X62.0934 Y35.8923 
G01 X62.0020 Y35.7554 
G01 X61.2990 Y35.0525 
G01 X61.1826 Y34.9360 
G01 X61.0457 Y34.8445 
G01 X60.8935 Y34.7815 
G01 X60.7320 Y34.7494 
G01 X44.7850 Y34.7494 
G01 X44.6234 Y34.7815 
G01 X44.4713 Y34.8445 
G01 X44.3344 Y34.9360 
G01 X44.2179 Y35.0525 
G01 X44.1707 Y35.1232 
G01 X44.1264 Y35.1894 
G01 X44.0634 Y35.3415 
G01 X44.0373 Y35.4728 
G01 X44.0313 Y35.5031 
G01 X44.0313 Y35.6677 
G01 X44.0634 Y35.8293 
G01 X44.1264 Y35.9814 
G01 X44.2179 Y36.1183 
G01 X44.3344 Y36.2348 
G01 X44.4051 Y36.2820 
G01 X44.4713 Y36.3262 
G01 X44.7472 Y36.4405 
G01 X46.0954 Y37.7887 
G01 X46.4005 Y38.0938 
G01 X46.4704 Y38.2626 
G01 X46.4704 Y39.9254 
G01 X46.4704 Y40.0086 
G01 X46.4704 Y40.0900 
G01 X46.4898 Y40.1874 
G01 X46.5025 Y40.2515 
G01 X46.5616 Y40.3942 
G01 X46.5655 Y40.4037 
G01 X46.6235 Y40.4905 
G01 X46.6570 Y40.5406 
G01 X46.7162 Y40.5998 
G01 X46.7735 Y40.6570 
G01 X46.8559 Y40.7121 
G01 X46.9104 Y40.7485 
G01 X47.0626 Y40.8116 
G01 X47.1933 Y40.8376 
G01 X47.2241 Y40.8437 
G01 X47.3073 Y40.8437 
G01 X47.3887 Y40.8437 
G01 X47.4861 Y40.8243 
G01 X47.5502 Y40.8116 
G01 X47.6018 Y40.7902 
G01 X48.6338 Y40.7902 
G01 X49.2898 Y41.4462 
G01 X49.2898 Y42.3738 
G01 X48.6338 Y43.0298 
G01 X47.7062 Y43.0298 
G01 X47.6234 Y42.9470 
G01 X47.4865 Y42.8556 
G01 X47.3344 Y42.7925 
G01 X47.1728 Y42.7604 
G01 X47.0082 Y42.7604 
G01 X46.9742 Y42.7672 
G01 X46.8466 Y42.7925 
G01 X46.6945 Y42.8556 
G01 X46.6229 Y42.9034 
G01 X46.5576 Y42.9470 
G01 X46.4748 Y43.0298 
G01 X45.5472 Y43.0298 
G01 X44.8912 Y42.3738 
G01 X44.8912 Y41.4462 
G01 X45.2485 Y41.0888 
G01 X45.3650 Y40.9724 
G01 X45.4564 Y40.8355 
G01 X45.5195 Y40.6833 
G01 X45.5516 Y40.5218 
G01 X45.5516 Y38.8082 
G01 X45.5195 Y38.6467 
G01 X45.4564 Y38.4946 
G01 X45.3650 Y38.3577 
G01 X44.5998 Y37.5925 
G01 X44.4833 Y37.4760 
G01 X44.3464 Y37.3845 
G01 X44.1943 Y37.3215 
G01 X44.0328 Y37.2894 
G01 X28.6559 Y37.2894 
G01 X28.4944 Y37.3215 
G01 X28.3595 Y37.3774 
G01 X28.3423 Y37.3845 
G01 X28.2944 Y37.4165 
G01 X28.2054 Y37.4760 
G01 X28.0889 Y37.5925 
G01 X28.0417 Y37.6632 
G01 X27.9974 Y37.7294 
G01 X27.9344 Y37.8815 
G01 X27.9147 Y37.9806 
G01 X27.9023 Y38.0431 
G01 X27.9023 Y38.2077 
G01 X27.9344 Y38.3693 
G01 X27.9903 Y38.5042 
G01 X27.9974 Y38.5214 
G01 X28.0294 Y38.5693 
G01 X28.0889 Y38.6583 
G01 X28.2054 Y38.7748 
G01 X28.2761 Y38.8220 
G01 X28.3423 Y38.8662 
G01 X28.6182 Y38.9805 
G01 X29.8905 Y40.2528 
G01 X29.9830 Y40.4762 
G01 X30.0309 Y40.5479 
G01 X30.0745 Y40.6131 
G01 X30.1909 Y40.7296 
G01 X30.2836 Y40.7915 
G01 X30.3279 Y40.8211 
G01 X30.3558 Y40.8326 
G01 X30.4800 Y40.8841 
G01 X30.6415 Y40.9162 
G01 X30.8062 Y40.9162 
G01 X30.8723 Y40.9031 
G01 X30.9677 Y40.8841 
G01 X31.1198 Y40.8211 
G01 X31.1661 Y40.7902 
G01 X32.1238 Y40.7902 
G01 X32.7798 Y41.4462 
G01 X32.7798 Y42.3738 
G01 X32.1238 Y43.0298 
G01 X31.1962 Y43.0298 
G01 X31.1134 Y42.9470 
G01 X30.9765 Y42.8556 
G01 X30.8244 Y42.7925 
G01 X30.6628 Y42.7604 
G01 X30.4982 Y42.7604 
G01 X30.4642 Y42.7672 
G01 X30.3366 Y42.7925 
G01 X30.1845 Y42.8556 
G01 X30.1129 Y42.9034 
G01 X30.0476 Y42.9470 
G01 X29.9648 Y43.0298 
G01 X29.0372 Y43.0298 
G01 X28.3812 Y42.3738 
G01 X28.3812 Y41.4462 
G01 X28.4335 Y41.3939 
G01 X28.4926 Y41.3347 
G01 X28.5499 Y41.2774 
G01 X28.5966 Y41.2076 
G01 X28.6414 Y41.1405 
G01 X28.7007 Y40.9973 
G01 X28.7044 Y40.9884 
G01 X28.7366 Y40.8268 
G01 X28.7366 Y40.7436 
G01 X28.7366 Y40.6622 
G01 X28.7044 Y40.5007 
G01 X28.6562 Y40.3841 
G01 X28.6414 Y40.3485 
G01 X28.5943 Y40.2780 
G01 X28.5499 Y40.2116 
G01 X28.4837 Y40.1454 
G01 X28.4335 Y40.0952 
G01 X28.4205 Y40.0822 
G01 X28.3543 Y40.0160 
G01 X28.2900 Y39.9730 
G01 X28.2174 Y39.9245 
G01 X28.0779 Y39.8668 
G01 X28.0653 Y39.8615 
G01 X27.9047 Y39.8296 
G01 X27.8223 Y39.8294 
G01 X24.2090 Y39.8294 
G01 X24.0475 Y39.8615 
G01 X23.8953 Y39.9245 
G01 X23.8020 Y39.9869 
G01 X23.7584 Y40.0160 
G01 X23.6419 Y40.1325 
G01 X23.5505 Y40.2694 
G01 X23.4874 Y40.4215 
G01 X23.4613 Y40.5528 
G01 X23.4553 Y40.5831 
G01 X23.4553 Y40.7477 
G01 X23.4874 Y40.9093 
G01 X23.5505 Y41.0614 
G01 X23.6128 Y41.1547 
G01 X23.6419 Y41.1983 
G01 X23.6506 Y41.2069 
G01 X23.7584 Y41.3148 
G01 X23.8898 Y41.4462 
G01 X23.8898 Y42.3738 
G01 X23.2338 Y43.0298 
G01 X22.3062 Y43.0298 
G01 X22.2028 Y42.9265 
G01 X22.0864 Y42.8100 
G01 X21.9495 Y42.7185 
G01 X21.7973 Y42.6555 
G01 X21.6358 Y42.6234 
G01 X20.7894 Y42.6234 
G01 X20.6279 Y42.6555 
G01 X20.4758 Y42.7185 
G01 X20.3389 Y42.8100 
G01 X19.8600 Y43.2889 
G01 X19.7685 Y43.4258 
G01 X19.7055 Y43.5779 
G01 X19.6734 Y43.7394 
G01 X19.6734 Y44.2398 
G01 X19.7055 Y44.4013 
G01 X19.7685 Y44.5534 
G01 X19.8309 Y44.6467 
G01 X19.8600 Y44.6903 
G01 X19.9765 Y44.8068 
G01 X20.1134 Y44.8983 
G01 X20.2655 Y44.9613 
G01 X20.3968 Y44.9874 
G01 X20.4271 Y44.9934 
G01 X20.5917 Y44.9934 
G01 X20.7533 Y44.9613 
G01 X20.8883 Y44.9053 
G01 X20.9054 Y44.8983 
G01 X21.2570 Y44.7526 
G01 X21.7429 Y44.7526 
G01 X22.1870 Y44.9365 
G01 X22.2100 Y44.9567 
G01 X22.2488 Y44.9955 
G01 X22.2718 Y45.0108 
G01 X22.2925 Y45.0290 
G01 X22.3401 Y45.0565 
G01 X22.3858 Y45.0870 
G01 X22.4112 Y45.0976 
G01 X22.4351 Y45.1113 
G01 X22.4871 Y45.1290 
G01 X22.5379 Y45.1500 
G01 X22.5649 Y45.1554 
G01 X22.5910 Y45.1643 
G01 X22.6455 Y45.1714 
G01 X22.6994 Y45.1822 
G01 X22.7270 Y45.1822 
G01 X22.7543 Y45.1858 
G01 X22.8092 Y45.1822 
G01 X22.8641 Y45.1822 
G01 X22.8911 Y45.1768 
G01 X22.9186 Y45.1750 
G01 X22.9717 Y45.1608 
G01 X23.0256 Y45.1500 
G01 X23.0511 Y45.1395 
G01 X23.0777 Y45.1324 
G01 X23.1270 Y45.1081 
G01 X23.1778 Y45.0870 
G01 X23.2007 Y45.0717 
G01 X23.2040 Y45.0701 
G01 X23.2040 Y45.0889 
G01 X23.1117 Y45.1812 
G01 X22.9991 Y45.3362 
G01 X22.9122 Y45.5068 
G01 X22.8530 Y45.6890 
G01 X22.8230 Y45.8782 
G01 X22.8230 Y48.1018 
G01 X22.8530 Y48.2910 
G01 X22.9122 Y48.4732 
G01 X22.9991 Y48.6438 
G01 X23.1117 Y48.7988 
G01 X23.2472 Y48.9343 
G01 X23.4021 Y49.0469 
G01 X23.5728 Y49.1338 
G01 X23.7550 Y49.1930 
G01 X23.9442 Y49.2230 
G01 X24.1358 Y49.2230 
G01 X24.3250 Y49.1930 
G01 X24.5072 Y49.1338 
G01 X24.6778 Y49.0469 
G01 X24.8328 Y48.9343 
G01 X24.9683 Y48.7988 
G01 X25.0809 Y48.6438 
G01 X25.1678 Y48.4732 
G01 X25.2270 Y48.2910 
G01 X25.2570 Y48.1018 
G01 X25.2570 Y47.8260 
G01 X25.2614 Y47.8260 
G01 X25.2614 Y48.0861 
G01 X25.2405 Y48.2448 
G01 X25.1991 Y48.3994 
G01 X25.1753 Y48.4567 
G01 X25.1598 Y48.5349 
G01 X25.1432 Y48.6182 
G01 X25.1432 Y48.7010 
G01 X25.1432 Y48.7829 
G01 X25.1584 Y48.8594 
G01 X25.1753 Y48.9444 
G01 X25.2049 Y49.0160 
G01 X25.2383 Y49.0965 
G01 X25.2878 Y49.1706 
G01 X25.3298 Y49.2335 
G01 X25.4000 Y49.3037 
G01 X25.4462 Y49.3499 
G01 X25.5315 Y49.4069 
G01 X25.5831 Y49.4414 
G01 X25.6637 Y49.4748 
G01 X25.7353 Y49.5044 
G01 X25.8135 Y49.5200 
G01 X25.8968 Y49.5366 
G01 X25.9796 Y49.5366 
G01 X26.0615 Y49.5366 
G01 X26.4089 Y49.5366 
G01 X26.4843 Y49.5679 
G01 X26.5421 Y49.6256 
G01 X26.5734 Y49.7011 
G01 X26.5734 Y51.8989 
G01 X26.5421 Y51.9743 
G01 X26.3370 Y52.1794 
G01 X26.2455 Y52.3164 
G01 X26.1825 Y52.4685 
G01 X26.1504 Y52.6300 
G01 X26.1504 Y55.9672 
G01 X26.0225 Y56.2760 
G01 X25.6265 Y56.6720 
G01 X25.5100 Y56.7885 
G01 X25.4185 Y56.9254 
G01 X25.3555 Y57.0775 
G01 X25.3234 Y57.2390 
G01 X25.3234 Y57.4212 
G01 X25.1158 Y57.9223 
G01 X24.7323 Y58.3058 
G01 X24.2312 Y58.5134 
G01 X23.6888 Y58.5134 
G01 X23.1877 Y58.3058 
G01 X22.8042 Y57.9223 
G01 X22.5966 Y57.4212 
G01 X22.5966 Y56.8788 
G01 X22.8042 Y56.3777 
G01 X23.1877 Y55.9942 
G01 X23.6888 Y55.7866 
G01 X23.7159 Y55.7866 
G01 X23.8774 Y55.7545 
G01 X24.0296 Y55.6915 
G01 X24.1665 Y55.6000 
G01 X24.2830 Y55.4835 
G01 X24.3744 Y55.3466 
G01 X24.4375 Y55.1945 
G01 X24.4696 Y55.0329 
G01 X24.4696 Y52.6300 
G01 X24.4375 Y52.4685 
G01 X24.3744 Y52.3164 
G01 X24.2830 Y52.1794 
G01 X24.0470 Y51.9435 
G01 X23.9306 Y51.8270 
G01 X23.7936 Y51.7355 
G01 X23.6415 Y51.6725 
G01 X23.4800 Y51.6404 
G01 X22.6028 Y51.6404 
G01 X22.2939 Y51.5125 
G01 X21.1998 Y50.4183 
G01 X20.7875 Y50.0060 
G01 X20.6316 Y49.6296 
G01 X20.5686 Y49.4775 
G01 X20.4771 Y49.3406 
G01 X20.3607 Y49.2241 
G01 X20.2237 Y49.1326 
G01 X20.0716 Y49.0696 
G01 X19.9101 Y49.0375 
G01 X19.7454 Y49.0375 
G01 X19.7151 Y49.0435 
G01 X19.5839 Y49.0696 
G01 X19.3712 Y49.1577 
G01 X19.3541 Y49.1648 
G01 X19.2191 Y49.2207 
G01 X19.0822 Y49.3122 
G01 X18.9657 Y49.4286 
G01 X18.9286 Y49.4842 
G01 X18.8742 Y49.5656 
G01 X18.8391 Y49.6503 
G01 X18.8112 Y49.7177 
G01 X18.7948 Y49.8004 
G01 X18.7791 Y49.8792 
G01 X18.7791 Y50.0439 
G01 X18.7986 Y50.1421 
G01 X18.8112 Y50.2054 
G01 X18.8279 Y50.2456 
G01 X18.8742 Y50.3576 
G01 X18.9534 Y50.5487 
G01 X18.9534 Y51.0513 
G01 X18.7611 Y51.5156 
G01 X18.7170 Y51.5597 
G01 X18.6255 Y51.6966 
G01 X18.5913 Y51.7794 
G01 X18.5625 Y51.8487 
G01 X18.5556 Y51.8835 
G01 X18.5304 Y52.0102 
G01 X18.5304 Y55.0329 
G01 X18.5625 Y55.1945 
G01 X18.6255 Y55.3466 
G01 X18.7170 Y55.4835 
G01 X18.8335 Y55.6000 
G01 X18.9704 Y55.6915 
G01 X19.1225 Y55.7545 
G01 X19.2841 Y55.7866 
G01 X20.1589 Y55.7866 
G01 X20.2343 Y55.8179 
G01 X20.2921 Y55.8756 
G01 X20.3234 Y55.9511 
G01 X20.3234 Y58.3489 
G01 X20.2921 Y58.4243 
G01 X20.2297 Y58.4868 
G01 X20.1035 Y58.5711 
G01 X19.9870 Y58.6876 
G01 X19.8955 Y58.8245 
G01 X19.8937 Y58.8289 
G01 X19.8325 Y58.9766 
G01 X19.8004 Y59.1381 
G01 X19.8004 Y60.7629 
G01 X19.8325 Y60.9245 
G01 X19.8955 Y61.0766 
G01 X19.9870 Y61.2135 
G01 X20.1035 Y61.3300 
G01 X20.2404 Y61.4215 
G01 X20.3925 Y61.4845 
G01 X20.5541 Y61.5166 
G01 X33.8759 Y61.5166 
G01 X34.0374 Y61.4845 
G01 X34.1896 Y61.4215 
G01 X34.3265 Y61.3300 
G01 X34.4430 Y61.2135 
G01 X34.5344 Y61.0766 
G01 X34.5975 Y60.9245 
G01 X34.6296 Y60.7629 
G01 X34.6296 Y59.1381 
G01 X34.5975 Y58.9766 
G01 X34.5344 Y58.8245 
G01 X34.5308 Y58.8190 
G01 X34.4430 Y58.6876 
G01 X34.3265 Y58.5711 
G01 X34.3238 Y58.5693 
G01 X34.2003 Y58.4868 
G01 X34.1379 Y58.4243 
G01 X34.1066 Y58.3489 
G01 X34.1066 Y57.2390 
G01 X34.0745 Y57.0775 
G01 X34.0115 Y56.9254 
G01 X33.9491 Y56.8321 
G01 X33.9200 Y56.7885 
G01 X33.9104 Y56.7790 
G01 X33.8035 Y56.6720 
G01 X33.4875 Y56.3560 
G01 X33.3596 Y56.0472 
G01 X33.3596 Y52.0103 
G01 X33.3275 Y51.8487 
G01 X33.2644 Y51.6966 
G01 X33.1730 Y51.5597 
G01 X33.1289 Y51.5157 
G01 X32.9366 Y51.0513 
G01 X32.9366 Y50.5487 
G01 X33.1289 Y50.0843 
G01 X33.4843 Y49.7289 
G01 X33.8115 Y49.5934 
G01 X33.9636 Y49.5304 
G01 X33.9691 Y49.5267 
G01 X34.1006 Y49.4389 
G01 X34.2170 Y49.3225 
G01 X34.3085 Y49.1855 
G01 X34.3103 Y49.1812 
G01 X34.3715 Y49.0334 
G01 X34.4036 Y48.8719 
G01 X34.4036 Y48.7072 
G01 X34.3715 Y48.5457 
G01 X34.3090 Y48.3948 
G01 X34.2486 Y48.2490 
G01 X34.2486 Y45.7310 
G01 X34.4345 Y45.2821 
G01 X34.4535 Y45.2632 
G01 X34.5700 Y45.1467 
G01 X34.6615 Y45.0098 
G01 X34.7245 Y44.8576 
G01 X34.7566 Y44.6961 
G01 X34.7566 Y43.0381 
G01 X34.8652 Y42.7759 
G01 X35.9594 Y41.6817 
G01 X36.3359 Y41.3052 
G01 X36.5981 Y41.1966 
G01 X38.1458 Y41.1966 
G01 X38.3073 Y41.1645 
G01 X38.4595 Y41.1014 
G01 X38.5964 Y41.0100 
G01 X38.8162 Y40.7902 
G01 X39.7438 Y40.7902 
G01 X40.3998 Y41.4462 
G01 X40.3998 Y42.3738 
G01 X39.7438 Y43.0298 
G01 X38.8162 Y43.0298 
G01 X38.7128 Y42.9265 
G01 X38.5964 Y42.8100 
G01 X38.4595 Y42.7185 
G01 X38.3073 Y42.6555 
G01 X38.1458 Y42.6234 
G01 X37.2994 Y42.6234 
G01 X37.1379 Y42.6555 
G01 X36.9858 Y42.7185 
G01 X36.8489 Y42.8100 
G01 X36.4865 Y43.1724 
G01 X36.3700 Y43.2889 
G01 X36.2785 Y43.4258 
G01 X36.2155 Y43.5779 
G01 X36.1834 Y43.7394 
G01 X36.1834 Y44.2397 
G01 X36.2155 Y44.4013 
G01 X36.2785 Y44.5534 
G01 X36.3700 Y44.6903 
G01 X36.4865 Y44.8068 
G01 X36.6179 Y44.8946 
G01 X36.6234 Y44.8983 
G01 X36.7755 Y44.9613 
G01 X36.9371 Y44.9934 
G01 X37.1017 Y44.9934 
G01 X37.2632 Y44.9613 
G01 X37.2699 Y44.9585 
G01 X37.4154 Y44.8983 
G01 X37.7670 Y44.7526 
G01 X38.2529 Y44.7526 
G01 X38.6971 Y44.9365 
G01 X38.7200 Y44.9567 
G01 X38.7589 Y44.9955 
G01 X38.7818 Y45.0108 
G01 X38.8025 Y45.0290 
G01 X38.8501 Y45.0565 
G01 X38.8958 Y45.0870 
G01 X38.9212 Y45.0976 
G01 X38.9451 Y45.1113 
G01 X38.9972 Y45.1290 
G01 X39.0479 Y45.1500 
G01 X39.0749 Y45.1554 
G01 X39.1010 Y45.1643 
G01 X39.1555 Y45.1714 
G01 X39.2094 Y45.1822 
G01 X39.2370 Y45.1822 
G01 X39.2643 Y45.1858 
G01 X39.3192 Y45.1822 
G01 X39.3741 Y45.1822 
G01 X39.4011 Y45.1768 
G01 X39.4286 Y45.1750 
G01 X39.4817 Y45.1608 
G01 X39.5356 Y45.1500 
G01 X39.5611 Y45.1395 
G01 X39.5877 Y45.1324 
G01 X39.6370 Y45.1080 
G01 X39.6878 Y45.0870 
G01 X39.7107 Y45.0717 
G01 X39.7140 Y45.0701 
G01 X39.7140 Y45.0889 
G01 X39.6217 Y45.1812 
G01 X39.5091 Y45.3362 
G01 X39.4222 Y45.5068 
G01 X39.3630 Y45.6890 
G01 X39.3330 Y45.8782 
G01 X39.3330 Y48.1018 
G01 X39.3630 Y48.2910 
G01 X39.4222 Y48.4732 
G01 X39.5091 Y48.6438 
G01 X39.6217 Y48.7988 
G01 X39.7572 Y48.9343 
G01 X39.9121 Y49.0469 
G01 X40.0828 Y49.1338 
G01 X40.2650 Y49.1930 
G01 X40.4542 Y49.2230 
G01 X40.6458 Y49.2230 
G01 X40.8350 Y49.1930 
G01 X41.0172 Y49.1338 
G01 X41.1878 Y49.0469 
G01 X41.3428 Y48.9343 
G01 X41.4783 Y48.7988 
G01 X41.5909 Y48.6438 
G01 X41.6778 Y48.4732 
G01 X41.7370 Y48.2910 
G01 X41.7670 Y48.1018 
G01 X41.7670 Y47.8260 
G01 X41.7714 Y47.8260 
G01 X41.7714 Y48.0861 
G01 X41.7505 Y48.2448 
G01 X41.7091 Y48.3994 
G01 X41.6853 Y48.4567 
G01 X41.6698 Y48.5349 
G01 X41.6532 Y48.6182 
G01 X41.6532 Y48.7010 
G01 X41.6532 Y48.7829 
G01 X41.6684 Y48.8594 
G01 X41.6853 Y48.9444 
G01 X41.7149 Y49.0160 
G01 X41.7483 Y49.0965 
G01 X41.7978 Y49.1706 
G01 X41.8398 Y49.2335 
G01 X41.9100 Y49.3037 
G01 X41.9562 Y49.3499 
G01 X42.0415 Y49.4069 
G01 X42.0931 Y49.4414 
G01 X42.1737 Y49.4748 
G01 X42.2453 Y49.5044 
G01 X42.3235 Y49.5200 
G01 X42.4068 Y49.5366 
G01 X42.4896 Y49.5366 
G01 X42.5715 Y49.5366 
G01 X42.9189 Y49.5366 
G01 X42.9943 Y49.5679 
G01 X43.0521 Y49.6256 
G01 X43.0834 Y49.7011 
G01 X43.0834 Y51.8989 
G01 X43.0521 Y51.9743 
G01 X42.9635 Y52.0630 
G01 X42.8470 Y52.1794 
G01 X42.7555 Y52.3164 
G01 X42.6925 Y52.4685 
G01 X42.6604 Y52.6300 
G01 X42.6604 Y55.9672 
G01 X42.5325 Y56.2760 
G01 X42.1365 Y56.6720 
G01 X42.0200 Y56.7885 
G01 X41.9285 Y56.9254 
G01 X41.9267 Y56.9298 
G01 X41.8655 Y57.0775 
G01 X41.8334 Y57.2390 
G01 X41.8334 Y57.4212 
G01 X41.6258 Y57.9223 
G01 X41.2423 Y58.3058 
G01 X40.7412 Y58.5134 
G01 X40.1988 Y58.5134 
G01 X39.6977 Y58.3058 
G01 X39.3142 Y57.9223 
G01 X39.1066 Y57.4212 
G01 X39.1066 Y56.8788 
G01 X39.3142 Y56.3777 
G01 X39.6977 Y55.9942 
G01 X40.1988 Y55.7866 
G01 X40.2259 Y55.7866 
G01 X40.3875 Y55.7545 
G01 X40.5396 Y55.6915 
G01 X40.6765 Y55.6000 
G01 X40.7930 Y55.4835 
G01 X40.8845 Y55.3466 
G01 X40.9475 Y55.1945 
G01 X40.9796 Y55.0329 
G01 X40.9796 Y52.6300 
G01 X40.9475 Y52.4685 
G01 X40.8845 Y52.3164 
G01 X40.7930 Y52.1794 
G01 X40.5570 Y51.9435 
G01 X40.4406 Y51.8270 
G01 X40.3036 Y51.7355 
G01 X40.1515 Y51.6725 
G01 X39.9900 Y51.6404 
G01 X39.1128 Y51.6404 
G01 X38.8040 Y51.5125 
G01 X37.7098 Y50.4183 
G01 X37.2975 Y50.0061 
G01 X37.0837 Y49.4898 
G01 X37.0786 Y49.4775 
G01 X36.9871 Y49.3406 
G01 X36.8707 Y49.2241 
G01 X36.7338 Y49.1326 
G01 X36.6465 Y49.0965 
G01 X36.5816 Y49.0696 
G01 X36.4201 Y49.0375 
G01 X36.2554 Y49.0375 
G01 X36.0939 Y49.0696 
G01 X35.9663 Y49.1224 
G01 X35.8812 Y49.1577 
G01 X35.8057 Y49.1890 
G01 X35.7291 Y49.2207 
G01 X35.5922 Y49.3122 
G01 X35.4757 Y49.4286 
G01 X35.4204 Y49.5114 
G01 X35.3842 Y49.5656 
G01 X35.3618 Y49.6196 
G01 X35.3212 Y49.7177 
G01 X35.3154 Y49.7468 
G01 X35.2891 Y49.8792 
G01 X35.2891 Y50.0439 
G01 X35.3150 Y50.1742 
G01 X35.3212 Y50.2054 
G01 X35.3650 Y50.3111 
G01 X35.3842 Y50.3576 
G01 X35.4634 Y50.5487 
G01 X35.4634 Y51.0513 
G01 X35.2711 Y51.5157 
G01 X35.2270 Y51.5597 
G01 X35.1355 Y51.6966 
G01 X35.0725 Y51.8487 
G01 X35.0404 Y52.0103 
G01 X35.0404 Y55.0329 
G01 X35.0725 Y55.1945 
G01 X35.1355 Y55.3466 
G01 X35.2270 Y55.4835 
G01 X35.3435 Y55.6000 
G01 X35.4804 Y55.6915 
G01 X35.6325 Y55.7545 
G01 X35.7941 Y55.7866 
G01 X36.6689 Y55.7866 
G01 X36.7443 Y55.8179 
G01 X36.8021 Y55.8756 
G01 X36.8334 Y55.9511 
G01 X36.8334 Y58.3489 
G01 X36.8021 Y58.4243 
G01 X36.7397 Y58.4868 
G01 X36.6135 Y58.5711 
G01 X36.4970 Y58.6876 
G01 X36.4055 Y58.8245 
G01 X36.4037 Y58.8289 
G01 X36.3425 Y58.9766 
G01 X36.3104 Y59.1381 
G01 X36.3104 Y60.7629 
G01 X36.3425 Y60.9245 
G01 X36.4055 Y61.0766 
G01 X36.4970 Y61.2135 
G01 X36.6135 Y61.3300 
G01 X36.7504 Y61.4215 
G01 X36.9025 Y61.4845 
G01 X37.0641 Y61.5166 
G01 X50.3859 Y61.5166 
G01 X50.5474 Y61.4845 
G01 X50.6996 Y61.4215 
G01 X50.8365 Y61.3300 
G01 X50.9530 Y61.2135 
G01 X51.0444 Y61.0766 
G01 X51.1075 Y60.9245 
G01 X51.1396 Y60.7629 
G01 X51.1396 Y59.1381 
G01 X51.1075 Y58.9766 
G01 X51.0444 Y58.8245 
G01 X51.0408 Y58.8190 
G01 X50.9530 Y58.6876 
G01 X50.8365 Y58.5711 
G01 X50.8338 Y58.5693 
G01 X50.7103 Y58.4868 
G01 X50.6479 Y58.4243 
G01 X50.6166 Y58.3489 
G01 X50.6166 Y57.2390 
G01 X50.5845 Y57.0775 
G01 X50.5215 Y56.9254 
G01 X50.4300 Y56.7885 
G01 X49.9975 Y56.3560 
G01 X49.8696 Y56.0472 
G01 X49.8696 Y52.0103 
G01 X49.8375 Y51.8487 
G01 X49.7745 Y51.6966 
G01 X49.6830 Y51.5597 
G01 X49.6389 Y51.5157 
G01 X49.4466 Y51.0513 
G01 X49.4466 Y50.5487 
G01 X49.6389 Y50.0843 
G01 X49.9943 Y49.7289 
G01 X50.3215 Y49.5934 
G01 X50.4736 Y49.5304 
G01 X50.4791 Y49.5267 
G01 X50.6106 Y49.4389 
G01 X50.7270 Y49.3225 
G01 X50.8185 Y49.1855 
G01 X50.8203 Y49.1812 
G01 X50.8815 Y49.0334 
G01 X50.9136 Y48.8719 
G01 X50.9136 Y48.7072 
G01 X50.8815 Y48.5457 
G01 X50.8190 Y48.3948 
G01 X50.7586 Y48.2490 
G01 X50.7586 Y45.7310 
G01 X50.9445 Y45.2821 
G01 X50.9635 Y45.2632 
G01 X51.0800 Y45.1467 
G01 X51.1715 Y45.0098 
G01 X51.2345 Y44.8576 
G01 X51.2666 Y44.6961 
G01 X51.2666 Y43.0381 
G01 X51.3752 Y42.7759 
G01 X52.4694 Y41.6817 
G01 X52.8459 Y41.3052 
G01 X53.1081 Y41.1966 
G01 X54.6558 Y41.1966 
G01 X54.8173 Y41.1645 
G01 X54.9695 Y41.1014 
G01 X55.0628 Y41.0391 
G01 X55.1064 Y41.0100 
G01 X55.1146 Y41.0018 
G01 X55.2228 Y40.8935 
G01 X55.3262 Y40.7902 
G01 X56.2538 Y40.7902 
G01 X56.9098 Y41.4462 
G01 X56.9098 Y42.3738 
G01 X56.2538 Y43.0298 
G01 X55.3262 Y43.0298 
G01 X55.2228 Y42.9265 
G01 X55.1064 Y42.8100 
G01 X55.0591 Y42.7785 
G01 X54.9695 Y42.7185 
G01 X54.8173 Y42.6555 
G01 X54.6558 Y42.6234 
G01 X53.8094 Y42.6234 
G01 X53.6479 Y42.6555 
G01 X53.4958 Y42.7185 
G01 X53.3589 Y42.8100 
G01 X52.9965 Y43.1724 
G01 X52.8800 Y43.2889 
G01 X52.7885 Y43.4258 
G01 X52.7255 Y43.5779 
G01 X52.6934 Y43.7394 
G01 X52.6934 Y44.2397 
G01 X52.7255 Y44.4013 
G01 X52.7885 Y44.5534 
G01 X52.8800 Y44.6903 
G01 X52.9965 Y44.8068 
G01 X53.1279 Y44.8946 
G01 X53.1334 Y44.8983 
G01 X53.2855 Y44.9613 
G01 X53.4471 Y44.9934 
G01 X53.6117 Y44.9934 
G01 X53.7732 Y44.9613 
G01 X53.7799 Y44.9585 
G01 X53.9254 Y44.8983 
G01 X54.2770 Y44.7526 
G01 X54.7629 Y44.7526 
G01 X55.2070 Y44.9365 
G01 X55.2300 Y44.9567 
G01 X55.2688 Y44.9955 
G01 X55.2918 Y45.0108 
G01 X55.3125 Y45.0290 
G01 X55.3601 Y45.0565 
G01 X55.4058 Y45.0870 
G01 X55.4312 Y45.0976 
G01 X55.4551 Y45.1113 
G01 X55.5071 Y45.1290 
G01 X55.5579 Y45.1500 
G01 X55.5849 Y45.1554 
G01 X55.6110 Y45.1643 
G01 X55.6655 Y45.1714 
G01 X55.7194 Y45.1822 
G01 X55.7470 Y45.1822 
G01 X55.7743 Y45.1858 
G01 X55.8292 Y45.1822 
G01 X55.8841 Y45.1822 
G01 X55.9111 Y45.1768 
G01 X55.9386 Y45.1750 
G01 X55.9917 Y45.1608 
G01 X56.0456 Y45.1500 
G01 X56.0711 Y45.1395 
G01 X56.0977 Y45.1324 
G01 X56.1470 Y45.1081 
G01 X56.1978 Y45.0870 
G01 X56.2207 Y45.0717 
G01 X56.2240 Y45.0701 
G01 X56.2240 Y45.0889 
G01 X56.1317 Y45.1812 
G01 X56.0191 Y45.3362 
G01 X55.9322 Y45.5068 
G01 X55.8730 Y45.6890 
G01 X55.8430 Y45.8782 
G01 X55.8430 Y48.1018 
G01 X55.8730 Y48.2910 
G01 X55.9322 Y48.4732 
G01 X56.0191 Y48.6438 
G01 X56.1317 Y48.7988 
G01 X56.2672 Y48.9343 
G01 X56.4222 Y49.0469 
G01 X56.5928 Y49.1338 
G01 X56.7750 Y49.1930 
G01 X56.9642 Y49.2230 
G01 X57.1558 Y49.2230 
G01 X57.3450 Y49.1930 
G01 X57.5272 Y49.1338 
G01 X57.6978 Y49.0469 
G01 X57.8528 Y48.9343 
G01 X57.9883 Y48.7988 
G01 X58.1009 Y48.6438 
G01 X58.1878 Y48.4732 
G01 X58.2470 Y48.2910 
G01 X58.2770 Y48.1018 
G01 X58.2770 Y47.8260 
G01 X58.2814 Y47.8260 
G01 X58.2814 Y48.0861 
G01 X58.2605 Y48.2448 
G01 X58.2191 Y48.3994 
G01 X58.1953 Y48.4567 
G01 X58.1798 Y48.5349 
G01 X58.1632 Y48.6182 
G01 X58.1632 Y48.7010 
G01 X58.1632 Y48.7829 
G01 X58.1784 Y48.8594 
G01 X58.1953 Y48.9444 
G01 X58.2249 Y49.0160 
G01 X58.2583 Y49.0965 
G01 X58.3078 Y49.1706 
G01 X58.3498 Y49.2335 
G01 X58.4200 Y49.3037 
G01 X58.4662 Y49.3499 
G01 X58.5515 Y49.4069 
G01 X58.6031 Y49.4414 
G01 X58.6837 Y49.4748 
G01 X58.7553 Y49.5044 
G01 X58.8335 Y49.5200 
G01 X58.9168 Y49.5366 
G01 X58.9996 Y49.5366 
G01 X59.0815 Y49.5366 
G01 X59.4289 Y49.5366 
G01 X59.5043 Y49.5679 
G01 X59.5621 Y49.6256 
G01 X59.5934 Y49.7011 
G01 X59.5934 Y51.8989 
G01 X59.5621 Y51.9743 
G01 X59.4735 Y52.0630 
G01 X59.3570 Y52.1794 
G01 X59.2655 Y52.3164 
G01 X59.2025 Y52.4685 
G01 X59.1704 Y52.6300 
G01 X59.1704 Y55.9672 
G01 X59.0425 Y56.2760 
G01 X58.6465 Y56.6720 
G01 X58.5300 Y56.7885 
G01 X58.4385 Y56.9254 
G01 X58.3755 Y57.0775 
G01 X58.3434 Y57.2390 
G01 X58.3434 Y57.4212 
G01 X58.1358 Y57.9223 
G01 X57.7523 Y58.3058 
G01 X57.2512 Y58.5134 
G01 X56.7088 Y58.5134 
G01 X56.2077 Y58.3058 
G01 X55.8242 Y57.9223 
G01 X55.6166 Y57.4212 
G01 X55.6166 Y56.8788 
G01 X55.8242 Y56.3777 
G01 X56.2077 Y55.9942 
G01 X56.7088 Y55.7866 
G01 X56.7359 Y55.7866 
G01 X56.8974 Y55.7545 
G01 X57.0496 Y55.6915 
G01 X57.1865 Y55.6000 
G01 X57.3030 Y55.4835 
G01 X57.3944 Y55.3466 
G01 X57.4575 Y55.1945 
G01 X57.4896 Y55.0329 
G01 X57.4896 Y52.6300 
G01 X57.4575 Y52.4685 
G01 X57.3944 Y52.3164 
G01 X57.3030 Y52.1794 
G01 X57.0670 Y51.9435 
G01 X56.9506 Y51.8270 
G01 X56.8136 Y51.7355 
G01 X56.6615 Y51.6725 
G01 X56.5000 Y51.6404 
G01 X55.6228 Y51.6404 
G01 X55.3139 Y51.5125 
G01 X54.1033 Y50.3018 
G01 X53.8075 Y50.0061 
G01 X53.6516 Y49.6296 
G01 X53.5886 Y49.4775 
G01 X53.5263 Y49.3842 
G01 X53.4971 Y49.3406 
G01 X53.3807 Y49.2241 
G01 X53.2465 Y49.1344 
G01 X53.2437 Y49.1326 
G01 X53.2394 Y49.1308 
G01 X53.0916 Y49.0696 
G01 X52.9301 Y49.0375 
G01 X52.7654 Y49.0375 
G01 X52.6039 Y49.0696 
G01 X52.2391 Y49.2207 
G01 X52.1022 Y49.3122 
G01 X51.9857 Y49.4286 
G01 X51.9541 Y49.4759 
G01 X51.8942 Y49.5656 
G01 X51.8312 Y49.7177 
G01 X51.7991 Y49.8792 
G01 X51.7991 Y50.0439 
G01 X51.8075 Y50.0863 
G01 X51.8312 Y50.2054 
G01 X51.8942 Y50.3576 
G01 X51.9734 Y50.5487 
G01 X51.9734 Y51.0513 
G01 X51.7811 Y51.5157 
G01 X51.7370 Y51.5597 
G01 X51.6455 Y51.6966 
G01 X51.5825 Y51.8487 
G01 X51.5504 Y52.0103 
G01 X51.5504 Y55.0329 
G01 X51.5825 Y55.1945 
G01 X51.6455 Y55.3466 
G01 X51.7370 Y55.4835 
G01 X51.8535 Y55.6000 
G01 X51.9904 Y55.6915 
G01 X52.1425 Y55.7545 
G01 X52.3041 Y55.7866 
G01 X53.1789 Y55.7866 
G01 X53.2543 Y55.8179 
G01 X53.3121 Y55.8756 
G01 X53.3434 Y55.9511 
G01 X53.3434 Y58.3489 
G01 X53.3121 Y58.4243 
G01 X53.2497 Y58.4868 
G01 X53.1235 Y58.5711 
G01 X53.0070 Y58.6876 
G01 X52.9155 Y58.8245 
G01 X52.9137 Y58.8289 
G01 X52.8525 Y58.9766 
G01 X52.8204 Y59.1381 
G01 X52.8204 Y60.7629 
G01 X52.8525 Y60.9245 
G01 X52.9155 Y61.0766 
G01 X53.0070 Y61.2135 
G01 X53.1235 Y61.3300 
G01 X53.2604 Y61.4215 
G01 X53.4125 Y61.4845 
G01 X53.5741 Y61.5166 
G01 X66.8959 Y61.5166 
G01 X67.0575 Y61.4845 
G01 X67.2096 Y61.4215 
G01 X67.3465 Y61.3300 
G01 X67.4630 Y61.2135 
G01 X67.5545 Y61.0766 
G01 X67.6175 Y60.9245 
G01 X67.6496 Y60.7629 
G01 X67.6496 Y59.1381 
G01 X67.6175 Y58.9766 
G01 X67.5545 Y58.8245 
G01 X67.5508 Y58.8190 
G01 X67.4630 Y58.6876 
G01 X67.3465 Y58.5711 
G01 X67.3438 Y58.5693 
G01 X67.2203 Y58.4868 
G01 X67.1579 Y58.4243 
G01 X67.1266 Y58.3489 
G01 X67.1266 Y57.2390 
G01 X67.0945 Y57.0775 
G01 X67.0315 Y56.9254 
G01 X66.9400 Y56.7885 
G01 X66.5075 Y56.3560 
G01 X66.3796 Y56.0472 
G01 X66.3796 Y52.0102 
G01 X66.3537 Y51.8799 
G01 X66.3475 Y51.8487 
G01 X66.3177 Y51.7768 
G01 X66.2845 Y51.6966 
G01 X66.2795 Y51.6892 
G01 X66.1930 Y51.5597 
G01 X66.1489 Y51.5156 
G01 X65.9566 Y51.0513 
G01 X65.9566 Y50.5487 
G01 X66.1489 Y50.0843 
G01 X66.5043 Y49.7289 
G01 X66.8315 Y49.5934 
G01 X66.9836 Y49.5304 
G01 X66.9891 Y49.5267 
G01 X67.1206 Y49.4389 
G01 X67.2370 Y49.3225 
G01 X67.3285 Y49.1855 
G01 X67.3303 Y49.1812 
G01 X67.3915 Y49.0334 
G01 X67.4236 Y48.8719 
G01 X67.4236 Y48.7072 
G01 X67.3915 Y48.5457 
G01 X67.3290 Y48.3948 
G01 X67.2686 Y48.2490 
G01 X67.2686 Y45.7310 
G01 X67.4545 Y45.2821 
G01 X67.4735 Y45.2632 
G01 X67.5900 Y45.1467 
G01 X67.6519 Y45.0540 
G01 X67.6814 Y45.0098 
G01 X67.6930 Y44.9819 
G01 X67.7445 Y44.8577 
G01 X67.7766 Y44.6961 
G01 X67.7766 Y43.0381 
G01 X67.8852 Y42.7759 
G01 X68.1452 Y42.5158 
G01 X69.3559 Y41.3052 
G01 X69.6181 Y41.1966 
G01 X71.1658 Y41.1966 
G01 X71.3273 Y41.1645 
G01 X71.4795 Y41.1014 
G01 X71.6164 Y41.0100 
G01 X71.8362 Y40.7902 
G01 X72.7638 Y40.7902 
G01 X73.4198 Y41.4462 
G01 X73.4198 Y42.3738 
G01 X72.7638 Y43.0298 
G01 X71.8362 Y43.0298 
G01 X71.7328 Y42.9265 
G01 X71.6164 Y42.8100 
G01 X71.4795 Y42.7185 
G01 X71.3273 Y42.6555 
G01 X71.1658 Y42.6234 
G01 X70.3194 Y42.6234 
G01 X70.1579 Y42.6555 
G01 X70.0058 Y42.7185 
G01 X69.8689 Y42.8100 
G01 X69.5065 Y43.1724 
G01 X69.3900 Y43.2889 
G01 X69.2985 Y43.4258 
G01 X69.2355 Y43.5779 
G01 X69.2034 Y43.7394 
G01 X69.2034 Y44.2397 
G01 X69.2355 Y44.4013 
G01 X69.2985 Y44.5534 
G01 X69.3900 Y44.6903 
G01 X69.5065 Y44.8068 
G01 X69.6379 Y44.8946 
G01 X69.6434 Y44.8983 
G01 X69.7955 Y44.9613 
G01 X69.9571 Y44.9934 
G01 X70.1217 Y44.9934 
G01 X70.2832 Y44.9613 
G01 X70.2899 Y44.9585 
G01 X70.4354 Y44.8983 
G01 X70.7870 Y44.7526 
G01 X71.2729 Y44.7526 
G01 X71.7170 Y44.9365 
G01 X71.7400 Y44.9567 
G01 X71.7788 Y44.9955 
G01 X71.8018 Y45.0108 
G01 X71.8225 Y45.0290 
G01 X71.8701 Y45.0565 
G01 X71.9158 Y45.0870 
G01 X71.9412 Y45.0976 
G01 X71.9651 Y45.1113 
G01 X72.0171 Y45.1290 
G01 X72.0679 Y45.1500 
G01 X72.0949 Y45.1554 
G01 X72.1210 Y45.1643 
G01 X72.1755 Y45.1714 
G01 X72.2294 Y45.1822 
G01 X72.2570 Y45.1822 
G01 X72.2843 Y45.1858 
G01 X72.3392 Y45.1822 
G01 X72.3941 Y45.1822 
G01 X72.4211 Y45.1768 
G01 X72.4486 Y45.1750 
G01 X72.5017 Y45.1608 
G01 X72.5556 Y45.1500 
G01 X72.5811 Y45.1395 
G01 X72.6077 Y45.1324 
G01 X72.6570 Y45.1081 
G01 X72.7078 Y45.0870 
G01 X72.7307 Y45.0717 
G01 X72.7340 Y45.0701 
G01 X72.7340 Y45.0889 
G01 X72.6417 Y45.1812 
G01 X72.5291 Y45.3362 
G01 X72.4422 Y45.5068 
G01 X72.3830 Y45.6890 
G01 X72.3530 Y45.8782 
G01 X72.3530 Y48.1018 
G01 X72.3830 Y48.2910 
G01 X72.4422 Y48.4732 
G01 X72.5291 Y48.6438 
G01 X72.6417 Y48.7988 
G01 X72.7772 Y48.9343 
G01 X72.9321 Y49.0469 
G01 X73.1028 Y49.1338 
G01 X73.2850 Y49.1930 
G01 X73.4742 Y49.2230 
G01 X73.6658 Y49.2230 
G01 X73.8550 Y49.1930 
G01 X74.0372 Y49.1338 
G01 X74.2078 Y49.0469 
G01 X74.3628 Y48.9343 
G01 X74.4983 Y48.7988 
G01 X74.6109 Y48.6438 
G01 X74.6978 Y48.4732 
G01 X74.7570 Y48.2910 
G01 X74.7870 Y48.1018 
G01 X74.7870 Y47.8260 
G01 X74.7914 Y47.8260 
G01 X74.7914 Y48.0861 
G01 X74.7705 Y48.2448 
G01 X74.7291 Y48.3994 
G01 X74.7053 Y48.4567 
G01 X74.6898 Y48.5349 
G01 X74.6732 Y48.6182 
G01 X74.6732 Y48.7010 
G01 X74.6732 Y48.7829 
G01 X74.6884 Y48.8594 
G01 X74.7053 Y48.9444 
G01 X74.7349 Y49.0160 
G01 X74.7683 Y49.0965 
G01 X74.8178 Y49.1706 
G01 X74.8598 Y49.2335 
G01 X74.9300 Y49.3037 
G01 X74.9762 Y49.3499 
G01 X75.0615 Y49.4069 
G01 X75.1131 Y49.4414 
G01 X75.1937 Y49.4748 
G01 X75.2653 Y49.5044 
G01 X75.3435 Y49.5200 
G01 X75.4268 Y49.5366 
G01 X75.5096 Y49.5366 
G01 X75.5915 Y49.5366 
G01 X75.9389 Y49.5366 
G01 X76.0143 Y49.5679 
G01 X76.0721 Y49.6256 
G01 X76.1034 Y49.7011 
G01 X76.1034 Y51.8989 
G01 X76.0721 Y51.9743 
G01 X75.8670 Y52.1794 
G01 X75.7755 Y52.3164 
G01 X75.7125 Y52.4685 
G01 X75.6804 Y52.6300 
G01 X75.6804 Y55.9672 
G01 X75.5525 Y56.2760 
G01 X75.1565 Y56.6720 
G01 X75.0400 Y56.7885 
G01 X74.9485 Y56.9254 
G01 X74.8855 Y57.0775 
G01 X74.8534 Y57.2390 
G01 X74.8534 Y57.4212 
G01 X74.6458 Y57.9223 
G01 X74.2623 Y58.3058 
G01 X73.7612 Y58.5134 
G01 X73.2188 Y58.5134 
G01 X72.7177 Y58.3058 
G01 X72.3342 Y57.9223 
G01 X72.1266 Y57.4212 
G01 X72.1266 Y56.8788 
G01 X72.3342 Y56.3777 
G01 X72.7177 Y55.9942 
G01 X73.2188 Y55.7866 
G01 X73.2459 Y55.7866 
G01 X73.4074 Y55.7545 
G01 X73.5596 Y55.6915 
G01 X73.6965 Y55.6000 
G01 X73.8130 Y55.4835 
G01 X73.9044 Y55.3466 
G01 X73.9675 Y55.1945 
G01 X73.9996 Y55.0329 
G01 X73.9996 Y52.6300 
G01 X73.9675 Y52.4685 
G01 X73.9044 Y52.3164 
G01 X73.8130 Y52.1794 
G01 X73.5770 Y51.9435 
G01 X73.4606 Y51.8270 
G01 X73.3236 Y51.7355 
G01 X73.1715 Y51.6725 
G01 X73.0100 Y51.6404 
G01 X72.1328 Y51.6404 
G01 X71.8239 Y51.5125 
G01 X70.7298 Y50.4183 
G01 X70.3175 Y50.0060 
G01 X70.1616 Y49.6296 
G01 X70.0986 Y49.4775 
G01 X70.0071 Y49.3406 
G01 X69.8907 Y49.2241 
G01 X69.7537 Y49.1326 
G01 X69.6016 Y49.0696 
G01 X69.4401 Y49.0375 
G01 X69.2754 Y49.0375 
G01 X69.2451 Y49.0435 
G01 X69.1139 Y49.0696 
G01 X68.9012 Y49.1577 
G01 X68.8841 Y49.1648 
G01 X68.7491 Y49.2207 
G01 X68.6122 Y49.3122 
G01 X68.4957 Y49.4286 
G01 X68.4586 Y49.4842 
G01 X68.4042 Y49.5656 
G01 X68.3691 Y49.6503 
G01 X68.3412 Y49.7177 
G01 X68.3248 Y49.8004 
G01 X68.3091 Y49.8792 
G01 X68.3091 Y50.0439 
G01 X68.3286 Y50.1421 
G01 X68.3412 Y50.2054 
G01 X68.3579 Y50.2456 
G01 X68.4042 Y50.3576 
G01 X68.4834 Y50.5487 
G01 X68.4834 Y51.0513 
G01 X68.2911 Y51.5156 
G01 X68.2470 Y51.5597 
G01 X68.1555 Y51.6966 
G01 X68.1213 Y51.7794 
G01 X68.0925 Y51.8487 
G01 X68.0856 Y51.8835 
G01 X68.0604 Y52.0102 
G01 X68.0604 Y55.0329 
G01 X68.0925 Y55.1945 
G01 X68.1555 Y55.3466 
G01 X68.2470 Y55.4835 
G01 X68.3635 Y55.6000 
G01 X68.5004 Y55.6915 
G01 X68.6525 Y55.7545 
G01 X68.8141 Y55.7866 
G01 X69.6889 Y55.7866 
G01 X69.7643 Y55.8179 
G01 X69.8221 Y55.8756 
G01 X69.8534 Y55.9511 
G01 X69.8534 Y58.3489 
G01 X69.8221 Y58.4243 
G01 X69.7597 Y58.4868 
G01 X69.6335 Y58.5711 
G01 X69.5170 Y58.6876 
G01 X69.4255 Y58.8245 
G01 X69.4237 Y58.8289 
G01 X69.3625 Y58.9766 
G01 X69.3304 Y59.1381 
G01 X69.3304 Y60.7629 
G01 X69.3625 Y60.9245 
G01 X69.4255 Y61.0766 
G01 X69.5170 Y61.2135 
G01 X69.6335 Y61.3300 
G01 X69.7704 Y61.4215 
G01 X69.9225 Y61.4845 
G01 X70.0841 Y61.5166 
G01 X79.0539 Y61.5166 
G01 X79.2155 Y61.4845 
G01 X79.3676 Y61.4215 
G01 X79.5045 Y61.3300 
G01 X80.0465 Y60.7880 
G01 X80.1630 Y60.6715 
G01 X80.2545 Y60.5346 
G01 X80.3175 Y60.3825 
G01 X80.3496 Y60.2209 
G01 X80.3496 Y17.1220 
G01 X80.3175 Y16.9605 
G01 X80.2545 Y16.8084 
G01 X80.1630 Y16.6715 
G01 X79.8750 Y16.3835 
G01 X79.7585 Y16.2670 
G01 X79.6216 Y16.1755 
G01 X79.4695 Y16.1125 
G01 X79.3079 Y16.0804 
G01 X75.8003 Y16.0804 
G01 X75.6387 Y16.1125 
G01 X75.4866 Y16.1755 
G01 X75.3497 Y16.2670 
G01 X75.3057 Y16.3111 
G01 X75.1919 Y16.3582 
G01 X75.0397 Y16.4212 
G01 X75.0343 Y16.4249 
G01 X74.9028 Y16.5127 
G01 X74.7864 Y16.6291 
G01 X74.6949 Y16.7661 
G01 X74.6319 Y16.9182 
G01 X74.5997 Y17.0797 
G01 X74.5997 Y17.2444 
G01 X74.6319 Y17.4059 
G01 X74.6834 Y17.5304 
G01 X74.6949 Y17.5580 
G01 X74.7914 Y17.7910 
G01 X74.7914 Y20.3089 
G01 X74.6055 Y20.7579 
G01 X74.5865 Y20.7768 
G01 X74.4700 Y20.8933 
G01 X74.4081 Y20.9860 
G01 X74.3785 Y21.0302 
G01 X74.3670 Y21.0581 
G01 X74.3155 Y21.1823 
G01 X74.2834 Y21.3439 
G01 X74.2834 Y22.9958 
G01 X74.3155 Y23.1573 
G01 X74.3785 Y23.3095 
G01 X74.4700 Y23.4464 
G01 X74.6898 Y23.6662 
G01 X74.6898 Y24.5938 
G01 X74.0338 Y25.2498 
G01 X73.1062 Y25.2498 
G01 X72.4502 Y24.5938 
G01 X72.4502 Y23.6662 
G01 X72.5535 Y23.5628 
G01 X72.6700 Y23.4464 
G01 X72.7614 Y23.3095 
G01 X72.8245 Y23.1573 
G01 X72.8566 Y22.9958 
G01 X72.8566 Y21.8002 
G01 X72.8245 Y21.6387 
G01 X72.7614 Y21.4866 
G01 X72.6700 Y21.3497 
G01 X72.5535 Y21.2332 
G01 X72.4221 Y21.1454 
G01 X72.4166 Y21.1417 
G01 X72.2645 Y21.0787 
G01 X72.1029 Y21.0466 
G01 X71.9383 Y21.0466 
G01 X71.7767 Y21.0787 
G01 X71.7701 Y21.0815 
G01 X71.6246 Y21.1417 
G01 X71.2730 Y21.2874 
G01 X70.7870 Y21.2874 
G01 X70.3429 Y21.1034 
G01 X70.3200 Y21.0833 
G01 X70.2811 Y21.0445 
G01 X70.2582 Y21.0292 
G01 X70.2375 Y21.0110 
G01 X70.1899 Y20.9835 
G01 X70.1442 Y20.9530 
G01 X70.1188 Y20.9424 
G01 X70.0949 Y20.9287 
G01 X70.0428 Y20.9110 
G01 X69.9921 Y20.8900 
G01 X69.9651 Y20.8846 
G01 X69.9390 Y20.8757 
G01 X69.8845 Y20.8685 
G01 X69.8306 Y20.8578 
G01 X69.8030 Y20.8578 
G01 X69.7757 Y20.8542 
G01 X69.7208 Y20.8578 
G01 X69.6659 Y20.8578 
G01 X69.6389 Y20.8632 
G01 X69.6114 Y20.8650 
G01 X69.5583 Y20.8792 
G01 X69.5044 Y20.8900 
G01 X69.4789 Y20.9005 
G01 X69.4523 Y20.9076 
G01 X69.4030 Y20.9319 
G01 X69.3522 Y20.9530 
G01 X69.3293 Y20.9683 
G01 X69.3260 Y20.9699 
G01 X69.3260 Y20.9511 
G01 X69.4183 Y20.8588 
G01 X69.5309 Y20.7038 
G01 X69.6178 Y20.5332 
G01 X69.6770 Y20.3510 
G01 X69.7070 Y20.1618 
G01 X69.7070 Y17.9382 
G01 X69.6770 Y17.7490 
G01 X69.6178 Y17.5668 
G01 X69.5309 Y17.3961 
G01 X69.4183 Y17.2412 
G01 X69.2828 Y17.1057 
G01 X69.1278 Y16.9931 
G01 X68.9572 Y16.9062 
G01 X68.7750 Y16.8470 
G01 X68.5858 Y16.8170 
G01 X68.3942 Y16.8170 
G01 X68.2050 Y16.8470 
G01 X68.0228 Y16.9062 
G01 X67.8521 Y16.9931 
G01 X67.6972 Y17.1057 
G01 X67.5617 Y17.2412 
G01 X67.4491 Y17.3961 
G01 X67.3622 Y17.5668 
G01 X67.3030 Y17.7490 
G01 X67.2730 Y17.9382 
G01 X67.2730 Y18.2140 
G01 X67.2686 Y18.2140 
G01 X67.2686 Y17.9539 
G01 X67.2895 Y17.7952 
G01 X67.3309 Y17.6406 
G01 X67.3547 Y17.5833 
G01 X67.3702 Y17.5051 
G01 X67.3868 Y17.4218 
G01 X67.3868 Y17.3390 
G01 X67.3868 Y17.2571 
G01 X67.3716 Y17.1806 
G01 X67.3547 Y17.0956 
G01 X67.3250 Y17.0240 
G01 X67.2917 Y16.9435 
G01 X67.2422 Y16.8694 
G01 X67.2002 Y16.8065 
G01 X67.1300 Y16.7363 
G01 X67.0838 Y16.6901 
G01 X66.9985 Y16.6331 
G01 X66.9469 Y16.5986 
G01 X66.8663 Y16.5652 
G01 X66.7947 Y16.5355 
G01 X66.7165 Y16.5200 
G01 X66.6332 Y16.5034 
G01 X66.5504 Y16.5034 
G01 X66.4685 Y16.5034 
G01 X65.8711 Y16.5034 
G01 X65.7956 Y16.4721 
G01 X65.7379 Y16.4143 
G01 X65.7066 Y16.3389 
G01 X65.7066 Y14.1411 
G01 X65.7379 Y14.0656 
G01 X65.8265 Y13.9770 
G01 X65.9430 Y13.8606 
G01 X66.0345 Y13.7236 
G01 X66.0975 Y13.5715 
G01 X66.1296 Y13.4100 
G01 X66.1296 Y10.2428 
G01 X66.2575 Y9.9339  
G01 X66.8235 Y9.3680  
G01 X66.9400 Y9.2515  
G01 X67.0315 Y9.1146  
G01 X67.0333 Y9.1102  
G01 X67.0945 Y8.9625  
G01 X67.1266 Y8.8010  
G01 X67.1266 Y8.6188  
G01 X67.3342 Y8.1177  
G01 X67.7177 Y7.7342  
G01 X68.2188 Y7.5266  
G01 X68.7612 Y7.5266  
G01 X69.2623 Y7.7342  
G01 X69.6458 Y8.1177  
G01 X69.8534 Y8.6188  
G01 X69.8534 Y9.1612  
G01 X69.6458 Y9.6623  
G01 X69.2623 Y10.0458 
G01 X68.7612 Y10.2534 
G01 X68.7437 Y10.2534 
G01 X68.6610 Y10.2534 
G01 X68.5790 Y10.2534 
G01 X68.4988 Y10.2694 
G01 X68.4175 Y10.2855 
G01 X68.3396 Y10.3178 
G01 X68.2654 Y10.3485 
G01 X68.1994 Y10.3926 
G01 X68.1285 Y10.4400 
G01 X68.0698 Y10.4987 
G01 X68.0120 Y10.5565 
G01 X67.9970 Y10.5715 
G01 X67.9565 Y10.6322 
G01 X67.9055 Y10.7084 
G01 X67.8679 Y10.7992 
G01 X67.8425 Y10.8605 
G01 X67.8233 Y10.9570 
G01 X67.8104 Y11.0220 
G01 X67.8104 Y11.1042 
G01 X67.8104 Y13.4100 
G01 X67.8425 Y13.5715 
G01 X67.9055 Y13.7236 
G01 X67.9970 Y13.8606 
G01 X68.2330 Y14.0965 
G01 X68.3494 Y14.2130 
G01 X68.4864 Y14.3044 
G01 X68.6385 Y14.3675 
G01 X68.8000 Y14.3996 
G01 X69.9272 Y14.3996 
G01 X70.2360 Y14.5275 
G01 X70.5318 Y14.8233 
G01 X71.3302 Y15.6217 
G01 X71.4467 Y15.7382 
G01 X71.7425 Y16.0339 
G01 X71.7497 Y16.0515 
G01 X71.7522 Y16.0552 
G01 X71.8412 Y16.1885 
G01 X71.9577 Y16.3049 
G01 X72.0267 Y16.3511 
G01 X72.0946 Y16.3964 
G01 X72.2467 Y16.4594 
G01 X72.2816 Y16.4664 
G01 X72.4082 Y16.4916 
G01 X72.5729 Y16.4916 
G01 X72.6711 Y16.4720 
G01 X72.7344 Y16.4594 
G01 X72.7732 Y16.4434 
G01 X72.8866 Y16.3964 
G01 X72.8902 Y16.3940 
G01 X73.0235 Y16.3049 
G01 X73.1400 Y16.1885 
G01 X73.1861 Y16.1194 
G01 X73.2314 Y16.0516 
G01 X73.2945 Y15.8994 
G01 X73.3014 Y15.8646 
G01 X73.3266 Y15.7379 
G01 X73.3266 Y14.9887 
G01 X73.5274 Y14.5038 
G01 X73.5397 Y14.4743 
G01 X73.5905 Y14.3517 
G01 X73.6226 Y14.1901 
G01 X73.6226 Y11.0071 
G01 X73.5905 Y10.8455 
G01 X73.5275 Y10.6934 
G01 X73.4360 Y10.5565 
G01 X73.3195 Y10.4400 
G01 X73.1826 Y10.3485 
G01 X73.0305 Y10.2855 
G01 X72.8689 Y10.2534 
G01 X72.2911 Y10.2534 
G01 X72.2156 Y10.2221 
G01 X72.1579 Y10.1643 
G01 X72.1266 Y10.0889 
G01 X72.1266 Y7.6911  
G01 X72.1579 Y7.6156  
G01 X72.2156 Y7.5579  
G01 X72.2856 Y7.5289  
G01 X72.2896 Y7.5272  
G01 X72.4265 Y7.4357  
G01 X72.5430 Y7.3193  
G01 X72.6345 Y7.1824  
G01 X72.6534 Y7.1365  
G01 X72.6975 Y7.0302  
G01 X72.7292 Y6.8705  
G01 X72.7296 Y5.6920  
G01 X72.6975 Y5.5305  
G01 X72.6345 Y5.3784  
G01 X72.5430 Y5.2415  
G01 X72.2550 Y4.9535  
G01 X72.1385 Y4.8370  
G01 X72.0016 Y4.7455  
G01 X71.8495 Y4.6825  
G01 X71.6879 Y4.6504  
G01 X58.5741 Y4.6504  
G01 X58.4125 Y4.6825  
G01 X58.2604 Y4.7455  
G01 X58.1235 Y4.8370  
G01 X58.0070 Y4.9535  
G01 X57.9155 Y5.0904  
G01 X57.8525 Y5.2425  
G01 X57.8204 Y5.4041  
G01 X57.8204 Y6.9019  
G01 X57.8525 Y7.0634  
G01 X57.9155 Y7.2155  
G01 X57.9192 Y7.2210  
G01 X58.0070 Y7.3524  
G01 X58.1235 Y7.4689  
G01 X58.1262 Y7.4707  
G01 X58.2497 Y7.5532  
G01 X58.3121 Y7.6156  
G01 X58.3434 Y7.6911  
G01 X58.3434 Y8.6213  
G01 X58.3755 Y8.7829  
G01 X58.4385 Y8.9350  
G01 X58.5300 Y9.0719  
G01 X59.1501 Y9.6920  
G01 X59.2974 Y10.0476 
G01 X59.2974 Y14.1901 
G01 X59.3295 Y14.3516 
G01 X59.3834 Y14.4816 
G01 X59.3925 Y14.5038 
G01 X59.5934 Y14.9887 
G01 X59.5934 Y15.4913 
G01 X59.4011 Y15.9557 
G01 X59.0457 Y16.3111 
G01 X58.7185 Y16.4466 
G01 X58.5664 Y16.5096 
G01 X58.5609 Y16.5133 
G01 X58.4294 Y16.6011 
G01 X58.3130 Y16.7175 
G01 X58.2215 Y16.8544 
G01 X58.2197 Y16.8588 
G01 X58.1585 Y17.0066 
G01 X58.1264 Y17.1681 
G01 X58.1264 Y17.3328 
G01 X58.1585 Y17.4943 
G01 X58.2210 Y17.6451 
G01 X58.2814 Y17.7910 
G01 X58.2814 Y20.3089 
G01 X58.0954 Y20.7579 
G01 X57.8225 Y21.0308 
G01 X57.7060 Y21.1473 
G01 X57.6745 Y21.1945 
G01 X57.6145 Y21.2842 
G01 X57.5515 Y21.4363 
G01 X57.5194 Y21.5979 
G01 X57.5194 Y22.7418 
G01 X57.5515 Y22.9033 
G01 X57.6145 Y23.0555 
G01 X57.6182 Y23.0610 
G01 X57.7060 Y23.1924 
G01 X57.7182 Y23.2046 
G01 X57.8225 Y23.3088 
G01 X58.1798 Y23.6662 
G01 X58.1798 Y24.5938 
G01 X57.5238 Y25.2498 
G01 X56.5962 Y25.2498 
G01 X55.9402 Y24.5938 
G01 X55.9402 Y23.6662 
G01 X56.2975 Y23.3088 
G01 X56.4140 Y23.1924 
G01 X56.5055 Y23.0555 
G01 X56.5073 Y23.0511 
G01 X56.5685 Y22.9033 
G01 X56.6006 Y22.7418 
G01 X56.6006 Y21.8133 
G01 X56.6006 Y21.7301 
G01 X56.6006 Y21.6487 
G01 X56.5685 Y21.4871 
G01 X56.5202 Y21.3706 
G01 X56.5055 Y21.3350 
G01 X56.4583 Y21.2645 
G01 X56.4140 Y21.1981 
G01 X56.3548 Y21.1389 
G01 X56.2975 Y21.0816 
G01 X56.2277 Y21.0350 
G01 X56.1606 Y20.9901 
G01 X56.0174 Y20.9308 
G01 X56.0085 Y20.9271 
G01 X55.8469 Y20.8950 
G01 X55.7637 Y20.8950 
G01 X55.6823 Y20.8950 
G01 X55.5207 Y20.9271 
G01 X55.4042 Y20.9754 
G01 X55.3686 Y20.9901 
G01 X55.2981 Y21.0373 
G01 X55.2317 Y21.0816 
G01 X55.2119 Y21.1015 
G01 X54.7629 Y21.2874 
G01 X54.2770 Y21.2874 
G01 X53.8330 Y21.1034 
G01 X53.8100 Y21.0833 
G01 X53.7711 Y21.0445 
G01 X53.7482 Y21.0292 
G01 X53.7275 Y21.0110 
G01 X53.6799 Y20.9835 
G01 X53.6342 Y20.9530 
G01 X53.6088 Y20.9424 
G01 X53.5849 Y20.9286 
G01 X53.5329 Y20.9110 
G01 X53.4821 Y20.8900 
G01 X53.4551 Y20.8846 
G01 X53.4290 Y20.8757 
G01 X53.3745 Y20.8685 
G01 X53.3206 Y20.8578 
G01 X53.2930 Y20.8578 
G01 X53.2657 Y20.8542 
G01 X53.2108 Y20.8578 
G01 X53.1559 Y20.8578 
G01 X53.1289 Y20.8632 
G01 X53.1014 Y20.8650 
G01 X53.0483 Y20.8792 
G01 X52.9944 Y20.8899 
G01 X52.9689 Y20.9005 
G01 X52.9423 Y20.9076 
G01 X52.8930 Y20.9319 
G01 X52.8422 Y20.9530 
G01 X52.8193 Y20.9683 
G01 X52.8160 Y20.9699 
G01 X52.8160 Y20.9511 
G01 X52.9083 Y20.8588 
G01 X53.0209 Y20.7038 
G01 X53.1078 Y20.5332 
G01 X53.1670 Y20.3510 
G01 X53.1970 Y20.1618 
G01 X53.1970 Y17.9382 
G01 X53.1670 Y17.7490 
G01 X53.1078 Y17.5668 
G01 X53.0209 Y17.3961 
G01 X52.9083 Y17.2412 
G01 X52.7728 Y17.1057 
G01 X52.6178 Y16.9931 
G01 X52.4472 Y16.9062 
G01 X52.2650 Y16.8470 
G01 X52.0758 Y16.8170 
G01 X51.8842 Y16.8170 
G01 X51.6950 Y16.8470 
G01 X51.5128 Y16.9062 
G01 X51.3421 Y16.9931 
G01 X51.1872 Y17.1057 
G01 X51.0517 Y17.2412 
G01 X50.9391 Y17.3961 
G01 X50.8522 Y17.5668 
G01 X50.7930 Y17.7490 
G01 X50.7630 Y17.9382 
G01 X50.7630 Y18.2140 
G01 X50.7586 Y18.2140 
G01 X50.7586 Y17.9539 
G01 X50.7795 Y17.7952 
G01 X50.8209 Y17.6406 
G01 X50.8447 Y17.5833 
G01 X50.8602 Y17.5051 
G01 X50.8768 Y17.4218 
G01 X50.8768 Y17.3390 
G01 X50.8768 Y17.2571 
G01 X50.8616 Y17.1806 
G01 X50.8447 Y17.0956 
G01 X50.8150 Y17.0240 
G01 X50.7817 Y16.9435 
G01 X50.7322 Y16.8694 
G01 X50.6902 Y16.8065 
G01 X50.6200 Y16.7363 
G01 X50.5738 Y16.6901 
G01 X50.4885 Y16.6331 
G01 X50.4369 Y16.5986 
G01 X50.3563 Y16.5652 
G01 X50.2847 Y16.5355 
G01 X50.2065 Y16.5200 
G01 X50.1232 Y16.5034 
G01 X50.0404 Y16.5034 
G01 X49.9585 Y16.5034 
G01 X49.6111 Y16.5034 
G01 X49.5356 Y16.4721 
G01 X49.4779 Y16.4143 
G01 X49.4466 Y16.3389 
G01 X49.4466 Y14.1411 
G01 X49.4779 Y14.0656 
G01 X49.5665 Y13.9770 
G01 X49.6830 Y13.8606 
G01 X49.7745 Y13.7236 
G01 X49.8375 Y13.5715 
G01 X49.8696 Y13.4100 
G01 X49.8696 Y9.9928  
G01 X49.9975 Y9.6839  
G01 X50.3135 Y9.3680  
G01 X50.4300 Y9.2515  
G01 X50.5215 Y9.1146  
G01 X50.5845 Y8.9625  
G01 X50.6166 Y8.8009  
G01 X50.6166 Y8.6188  
G01 X50.8242 Y8.1177  
G01 X51.2077 Y7.7342  
G01 X51.7088 Y7.5266  
G01 X52.2512 Y7.5266  
G01 X52.7523 Y7.7342  
G01 X53.1358 Y8.1177  
G01 X53.3434 Y8.6188  
G01 X53.3434 Y9.1612  
G01 X53.1358 Y9.6623  
G01 X52.7523 Y10.0458 
G01 X52.2024 Y10.2736 
G01 X52.1425 Y10.2855 
G01 X51.9904 Y10.3485 
G01 X51.8535 Y10.4400 
G01 X51.7370 Y10.5565 
G01 X51.6455 Y10.6934 
G01 X51.5825 Y10.8455 
G01 X51.5504 Y11.0071 
G01 X51.5504 Y13.4100 
G01 X51.5825 Y13.5715 
G01 X51.6455 Y13.7236 
G01 X51.7370 Y13.8606 
G01 X51.9730 Y14.0965 
G01 X52.0894 Y14.2130 
G01 X52.2264 Y14.3044 
G01 X52.3785 Y14.3675 
G01 X52.5400 Y14.3996 
G01 X53.4172 Y14.3996 
G01 X53.7260 Y14.5275 
G01 X54.0218 Y14.8233 
G01 X55.2325 Y16.0340 
G01 X55.3884 Y16.4104 
G01 X55.4514 Y16.5625 
G01 X55.5429 Y16.6994 
G01 X55.6593 Y16.8159 
G01 X55.7962 Y16.9074 
G01 X55.9484 Y16.9704 
G01 X56.1099 Y17.0025 
G01 X56.2746 Y17.0025 
G01 X56.3049 Y16.9965 
G01 X56.4361 Y16.9704 
G01 X56.6488 Y16.8823 
G01 X56.6659 Y16.8752 
G01 X56.8009 Y16.8193 
G01 X56.9378 Y16.7278 
G01 X57.0543 Y16.6113 
G01 X57.0914 Y16.5558 
G01 X57.1458 Y16.4744 
G01 X57.1809 Y16.3897 
G01 X57.2088 Y16.3223 
G01 X57.2252 Y16.2396 
G01 X57.2409 Y16.1608 
G01 X57.2409 Y15.9961 
G01 X57.2214 Y15.8979 
G01 X57.2088 Y15.8346 
G01 X57.1921 Y15.7944 
G01 X57.1458 Y15.6824 
G01 X57.0666 Y15.4913 
G01 X57.0666 Y14.9887 
G01 X57.2674 Y14.5038 
G01 X57.2797 Y14.4743 
G01 X57.3305 Y14.3516 
G01 X57.3626 Y14.1901 
G01 X57.3626 Y11.0071 
G01 X57.3305 Y10.8455 
G01 X57.2674 Y10.6934 
G01 X57.1760 Y10.5565 
G01 X57.0595 Y10.4400 
G01 X56.9226 Y10.3485 
G01 X56.7704 Y10.2855 
G01 X56.6089 Y10.2534 
G01 X55.7811 Y10.2534 
G01 X55.7056 Y10.2221 
G01 X55.6479 Y10.1643 
G01 X55.6166 Y10.0889 
G01 X55.6166 Y7.6911  
G01 X55.6479 Y7.6156  
G01 X55.7103 Y7.5532  
G01 X55.8365 Y7.4689  
G01 X55.9530 Y7.3524  
G01 X56.0444 Y7.2155  
G01 X56.0463 Y7.2111  
G01 X56.1075 Y7.0634  
G01 X56.1396 Y6.9019  
G01 X56.1396 Y5.4041  
G01 X56.1075 Y5.2425  
G01 X56.0444 Y5.0904  
G01 X55.9530 Y4.9535  
G01 X55.8365 Y4.8370  
G01 X55.6996 Y4.7455  
G01 X55.5474 Y4.6825  
G01 X55.3859 Y4.6504  
G01 X42.0641 Y4.6504  
G01 X41.9025 Y4.6825  
G01 X41.7504 Y4.7455  
G01 X41.6135 Y4.8370  
G01 X41.4970 Y4.9535  
G01 X41.4055 Y5.0904  
G01 X41.3425 Y5.2425  
G01 X41.3104 Y5.4041  
G01 X41.3104 Y6.9019  
G01 X41.3425 Y7.0634  
G01 X41.4055 Y7.2155  
G01 X41.4092 Y7.2210  
G01 X41.4970 Y7.3524  
G01 X41.6135 Y7.4689  
G01 X41.6162 Y7.4707  
G01 X41.7397 Y7.5532  
G01 X41.8021 Y7.6156  
G01 X41.8334 Y7.6911  
G01 X41.8334 Y8.6213  
G01 X41.8655 Y8.7829  
G01 X41.9285 Y8.9350  
G01 X42.0200 Y9.0719  
G01 X42.3901 Y9.4420  
G01 X42.5374 Y9.7976  
G01 X42.5374 Y14.1901 
G01 X42.5695 Y14.3517 
G01 X42.6234 Y14.4816 
G01 X42.6325 Y14.5038 
G01 X42.8334 Y14.9887 
G01 X42.8334 Y15.4913 
G01 X42.6411 Y15.9557 
G01 X42.2857 Y16.3111 
G01 X42.1719 Y16.3582 
G01 X42.0197 Y16.4212 
G01 X42.0143 Y16.4249 
G01 X41.8828 Y16.5127 
G01 X41.7664 Y16.6291 
G01 X41.6749 Y16.7661 
G01 X41.6119 Y16.9182 
G01 X41.5797 Y17.0797 
G01 X41.5797 Y17.2444 
G01 X41.6119 Y17.4059 
G01 X41.6634 Y17.5304 
G01 X41.6749 Y17.5580 
G01 X41.7714 Y17.7910 
G01 X41.7714 Y20.3089 
G01 X41.5855 Y20.7579 
G01 X41.5665 Y20.7768 
G01 X41.4500 Y20.8933 
G01 X41.3585 Y21.0302 
G01 X41.2955 Y21.1823 
G01 X41.2634 Y21.3439 
G01 X41.2634 Y22.9958 
G01 X41.2955 Y23.1573 
G01 X41.3585 Y23.3095 
G01 X41.4500 Y23.4464 
G01 X41.6698 Y23.6662 
G01 X41.6698 Y24.5938 
G01 X41.0138 Y25.2498 
G01 X40.0862 Y25.2498 
G01 X39.4302 Y24.5938 
G01 X39.4302 Y23.6662 
G01 X39.5335 Y23.5628 
G01 X39.6500 Y23.4464 
G01 X39.7415 Y23.3095 
G01 X39.8045 Y23.1573 
G01 X39.8366 Y22.9958 
G01 X39.8366 Y21.8002 
G01 X39.8045 Y21.6387 
G01 X39.7415 Y21.4866 
G01 X39.6500 Y21.3497 
G01 X39.5335 Y21.2332 
G01 X39.4021 Y21.1454 
G01 X39.3966 Y21.1417 
G01 X39.2445 Y21.0787 
G01 X39.0829 Y21.0466 
G01 X38.9183 Y21.0466 
G01 X38.7567 Y21.0787 
G01 X38.7501 Y21.0815 
G01 X38.6046 Y21.1417 
G01 X38.2530 Y21.2874 
G01 X37.7670 Y21.2874 
G01 X37.3230 Y21.1034 
G01 X37.3000 Y21.0833 
G01 X37.2611 Y21.0445 
G01 X37.2382 Y21.0292 
G01 X37.2175 Y21.0110 
G01 X37.1699 Y20.9835 
G01 X37.1242 Y20.9530 
G01 X37.0988 Y20.9424 
G01 X37.0749 Y20.9286 
G01 X37.0228 Y20.9110 
G01 X36.9721 Y20.8900 
G01 X36.9451 Y20.8846 
G01 X36.9190 Y20.8757 
G01 X36.8645 Y20.8685 
G01 X36.8106 Y20.8578 
G01 X36.7830 Y20.8578 
G01 X36.7557 Y20.8542 
G01 X36.7008 Y20.8578 
G01 X36.6459 Y20.8578 
G01 X36.6189 Y20.8632 
G01 X36.5914 Y20.8650 
G01 X36.5383 Y20.8792 
G01 X36.4844 Y20.8899 
G01 X36.4589 Y20.9005 
G01 X36.4323 Y20.9076 
G01 X36.3830 Y20.9319 
G01 X36.3322 Y20.9530 
G01 X36.3093 Y20.9683 
G01 X36.3060 Y20.9699 
G01 X36.3060 Y20.9511 
G01 X36.3983 Y20.8588 
G01 X36.5109 Y20.7038 
G01 X36.5978 Y20.5332 
G01 X36.6570 Y20.3510 
G01 X36.6870 Y20.1618 
G01 X36.6870 Y17.9382 
G01 X36.6570 Y17.7490 
G01 X36.5978 Y17.5668 
G01 X36.5109 Y17.3961 
G01 X36.3983 Y17.2412 
G01 X36.2628 Y17.1057 
G01 X36.1078 Y16.9931 
G01 X35.9372 Y16.9062 
G01 X35.7550 Y16.8470 
G01 X35.5658 Y16.8170 
G01 X35.3742 Y16.8170 
G01 X35.1850 Y16.8470 
G01 X35.0028 Y16.9062 
G01 X34.8321 Y16.9931 
G01 X34.6772 Y17.1057 
G01 X34.5417 Y17.2412 
G01 X34.4291 Y17.3961 
G01 X34.3422 Y17.5668 
G01 X34.2830 Y17.7490 
G01 X34.2530 Y17.9382 
G01 X34.2530 Y18.2140 
G01 X34.2486 Y18.2140 
G01 X34.2486 Y17.9539 
G01 X34.2695 Y17.7952 
G01 X34.3109 Y17.6406 
G01 X34.3347 Y17.5833 
G01 X34.3471 Y17.5207 
G01 X34.3668 Y17.4218 
G01 X34.3668 Y17.3554 
G01 X34.3668 Y17.2571 
G01 X34.3547 Y17.1962 
G01 X34.3347 Y17.0956 
G01 X34.3118 Y17.0404 
G01 X34.2717 Y16.9435 
G01 X34.2309 Y16.8824 
G01 X34.1802 Y16.8065 
G01 X34.1231 Y16.7494 
G01 X34.0638 Y16.6901 
G01 X33.9908 Y16.6413 
G01 X33.9269 Y16.5986 
G01 X33.8599 Y16.5708 
G01 X33.7747 Y16.5355 
G01 X33.7121 Y16.5231 
G01 X33.6132 Y16.5034 
G01 X33.5468 Y16.5034 
G01 X33.4485 Y16.5034 
G01 X32.8511 Y16.5034 
G01 X32.7756 Y16.4721 
G01 X32.7179 Y16.4143 
G01 X32.6866 Y16.3389 
G01 X32.6866 Y14.1411 
G01 X32.7179 Y14.0657 
G01 X32.9230 Y13.8606 
G01 X33.0144 Y13.7236 
G01 X33.0775 Y13.5715 
G01 X33.1096 Y13.4100 
G01 X33.1096 Y10.2428 
G01 X33.2375 Y9.9339  
G01 X33.8035 Y9.3680  
G01 X33.9200 Y9.2515  
G01 X34.0115 Y9.1146  
G01 X34.0745 Y8.9625  
G01 X34.1066 Y8.8009  
G01 X34.1066 Y8.6188  
G01 X34.3142 Y8.1177  
G01 X34.6977 Y7.7342  
G01 X35.1988 Y7.5266  
G01 X35.7412 Y7.5266  
G01 X36.2423 Y7.7342  
G01 X36.6258 Y8.1177  
G01 X36.8334 Y8.6188  
G01 X36.8334 Y9.1612  
G01 X36.6258 Y9.6623  
G01 X36.2423 Y10.0458 
G01 X35.7412 Y10.2534 
G01 X35.5590 Y10.2534 
G01 X35.3975 Y10.2855 
G01 X35.2454 Y10.3485 
G01 X35.1085 Y10.4400 
G01 X35.0935 Y10.4550 
G01 X34.9770 Y10.5715 
G01 X34.8855 Y10.7084 
G01 X34.8225 Y10.8605 
G01 X34.7904 Y11.0220 
G01 X34.7904 Y13.4100 
G01 X34.8225 Y13.5715 
G01 X34.8855 Y13.7236 
G01 X34.9770 Y13.8606 
G01 X35.2130 Y14.0965 
G01 X35.3294 Y14.2130 
G01 X35.4664 Y14.3044 
G01 X35.6185 Y14.3675 
G01 X35.7800 Y14.3996 
G01 X36.9072 Y14.3996 
G01 X37.2160 Y14.5275 
G01 X37.5118 Y14.8233 
G01 X38.7225 Y16.0339 
G01 X38.7297 Y16.0515 
G01 X38.7858 Y16.1355 
G01 X38.8212 Y16.1885 
G01 X38.8804 Y16.2476 
G01 X38.9377 Y16.3049 
G01 X39.0064 Y16.3509 
G01 X39.0746 Y16.3964 
G01 X39.1313 Y16.4199 
G01 X39.2267 Y16.4594 
G01 X39.3267 Y16.4793 
G01 X39.3882 Y16.4916 
G01 X39.4715 Y16.4916 
G01 X39.5529 Y16.4916 
G01 X39.5860 Y16.4850 
G01 X39.7144 Y16.4594 
G01 X39.7901 Y16.4281 
G01 X39.8666 Y16.3964 
G01 X39.9505 Y16.3404 
G01 X40.0035 Y16.3049 
G01 X40.0626 Y16.2458 
G01 X40.1199 Y16.1885 
G01 X40.1659 Y16.1197 
G01 X40.2114 Y16.0516 
G01 X40.2349 Y15.9949 
G01 X40.2745 Y15.8994 
G01 X40.2943 Y15.7995 
G01 X40.3066 Y15.7379 
G01 X40.3066 Y15.6547 
G01 X40.3066 Y15.5732 
G01 X40.3066 Y14.9887 
G01 X40.5074 Y14.5038 
G01 X40.5197 Y14.4743 
G01 X40.5705 Y14.3517 
G01 X40.6026 Y14.1901 
G01 X40.6026 Y11.0071 
G01 X40.5705 Y10.8455 
G01 X40.5074 Y10.6934 
G01 X40.4160 Y10.5565 
G01 X40.2995 Y10.4400 
G01 X40.1626 Y10.3485 
G01 X40.0104 Y10.2855 
G01 X39.8489 Y10.2534 
G01 X39.2711 Y10.2534 
G01 X39.1956 Y10.2221 
G01 X39.1379 Y10.1643 
G01 X39.1066 Y10.0889 
G01 X39.1066 Y7.6911  
G01 X39.1379 Y7.6156  
G01 X39.2003 Y7.5532  
G01 X39.3265 Y7.4689  
G01 X39.4430 Y7.3524  
G01 X39.5344 Y7.2155  
G01 X39.5363 Y7.2111  
G01 X39.5975 Y7.0634  
G01 X39.6296 Y6.9019  
G01 X39.6296 Y5.4041  
G01 X39.5975 Y5.2425  
G01 X39.5344 Y5.0904  
G01 X39.4430 Y4.9535  
G01 X39.3265 Y4.8370  
G01 X39.1896 Y4.7455  
G01 X39.0374 Y4.6825  
G01 X38.8759 Y4.6504  
G01 X25.5541 Y4.6504  
G01 X25.3925 Y4.6825  
G01 X25.2404 Y4.7455  
G01 X25.1035 Y4.8370  
G01 X24.9870 Y4.9535  
G01 X24.8955 Y5.0904  
G01 X24.8325 Y5.2425  
G01 X24.8004 Y5.4041  
G01 X24.8004 Y6.9019  
G01 X24.8325 Y7.0634  
G01 X24.8955 Y7.2155  
G01 X24.8992 Y7.2210  
G01 X24.9870 Y7.3524  
G01 X25.1035 Y7.4689  
G01 X25.1062 Y7.4707  
G01 X25.2297 Y7.5532  
G01 X25.2921 Y7.6156  
G01 X25.3234 Y7.6911  
G01 X25.3234 Y8.6213  
G01 X25.3555 Y8.7829  
G01 X25.4185 Y8.9350  
G01 X25.5100 Y9.0719  
G01 X25.8801 Y9.4420  
G01 X26.0274 Y9.7976  
G01 X26.0274 Y14.1901 
G01 X26.0595 Y14.3517 
G01 X26.1134 Y14.4816 
G01 X26.1225 Y14.5038 
G01 X26.3234 Y14.9887 
G01 X26.3234 Y15.4913 
G01 X26.1311 Y15.9557 
G01 X25.7757 Y16.3111 
G01 X25.6619 Y16.3582 
G01 X25.5097 Y16.4212 
G01 X25.5043 Y16.4249 
G01 X25.3728 Y16.5127 
G01 X25.2564 Y16.6291 
G01 X25.1649 Y16.7661 
G01 X25.1019 Y16.9182 
G01 X25.0697 Y17.0797 
G01 X25.0697 Y17.2444 
G01 X25.1019 Y17.4059 
G01 X25.1534 Y17.5304 
G01 X25.1649 Y17.5580 
G01 X25.2614 Y17.7910 
G01 X25.2614 Y20.3089 
G01 X25.0755 Y20.7579 
G01 X25.0565 Y20.7768 
G01 X24.9400 Y20.8933 
G01 X24.8485 Y21.0302 
G01 X24.7855 Y21.1823 
G01 X24.7534 Y21.3439 
G01 X24.7534 Y22.9958 
G01 X24.7855 Y23.1573 
G01 X24.8485 Y23.3095 
G01 X24.9109 Y23.4028 
G01 X24.9400 Y23.4464 
G01 X24.9482 Y23.4546 
G01 X25.0565 Y23.5628 
G01 X25.1598 Y23.6662 
G01 X25.1598 Y24.5938 
G01 X24.5038 Y25.2498 
G01 X23.5762 Y25.2498 
G01 X22.9202 Y24.5938 
G01 X22.9202 Y23.6662 
G01 X23.0235 Y23.5628 
G01 X23.1400 Y23.4464 
G01 X23.1715 Y23.3991 
G01 X23.2314 Y23.3095 
G01 X23.2945 Y23.1573 
G01 X23.3266 Y22.9958 
G01 X23.3266 Y21.8002 
G01 X23.2945 Y21.6387 
G01 X23.2314 Y21.4866 
G01 X23.1400 Y21.3497 
G01 X23.0235 Y21.2332 
G01 X22.8921 Y21.1454 
G01 X22.8866 Y21.1417 
G01 X22.7345 Y21.0787 
G01 X22.5729 Y21.0466 
G01 X22.4083 Y21.0466 
G01 X22.2467 Y21.0787 
G01 X22.2401 Y21.0815 
G01 X22.0946 Y21.1417 
G01 X21.7430 Y21.2874 
G01 X21.2570 Y21.2874 
G01 X20.8130 Y21.1034 
G01 X20.7900 Y21.0833 
G01 X20.7511 Y21.0445 
G01 X20.7282 Y21.0292 
G01 X20.7075 Y21.0110 
G01 X20.6599 Y20.9835 
G01 X20.6142 Y20.9530 
G01 X20.5888 Y20.9424 
G01 X20.5649 Y20.9286 
G01 X20.5129 Y20.9110 
G01 X20.4621 Y20.8900 
G01 X20.4351 Y20.8846 
G01 X20.4090 Y20.8757 
G01 X20.3545 Y20.8685 
G01 X20.3006 Y20.8578 
G01 X20.2730 Y20.8578 
G01 X20.2457 Y20.8542 
G01 X20.1908 Y20.8578 
G01 X20.1359 Y20.8578 
G01 X20.1089 Y20.8632 
G01 X20.0814 Y20.8650 
G01 X20.0283 Y20.8792 
G01 X19.9744 Y20.8899 
G01 X19.9489 Y20.9005 
G01 X19.9223 Y20.9076 
G01 X19.8730 Y20.9319 
G01 X19.8222 Y20.9530 
G01 X19.7993 Y20.9683 
G01 X19.7960 Y20.9699 
G01 X19.7960 Y20.9511 
G01 X19.8883 Y20.8588 
G01 X20.0009 Y20.7038 
G01 X20.0878 Y20.5332 
G01 X20.1470 Y20.3510 
G01 X20.1770 Y20.1618 
G01 X20.1770 Y17.9382 
G01 X20.1470 Y17.7490 
G01 X20.0878 Y17.5668 
G01 X20.0009 Y17.3961 
G01 X19.8883 Y17.2412 
G01 X19.7528 Y17.1057 
G01 X19.5978 Y16.9931 
G01 X19.4272 Y16.9062 
G01 X19.2450 Y16.8470 
G01 X19.0558 Y16.8170 
G01 X18.8642 Y16.8170 
G01 X18.6750 Y16.8470 
G01 X18.4928 Y16.9062 
G01 X18.3222 Y16.9931 
G01 X18.1672 Y17.1057 
G01 X18.0317 Y17.2412 
G01 X17.9191 Y17.3961 
G01 X17.8322 Y17.5668 
G01 X17.7730 Y17.7490 
G01 X17.7430 Y17.9382 
G01 X17.7430 Y18.2140 
G01 X17.7386 Y18.2140 
G01 X17.7386 Y17.9539 
G01 X17.7595 Y17.7952 
G01 X17.8009 Y17.6405 
G01 X17.8247 Y17.5832 
G01 X17.8500 Y17.4557 
G01 X17.8568 Y17.4217 
G01 X17.8568 Y17.2570 
G01 X17.8247 Y17.0955 
G01 X17.7883 Y17.0077 
G01 X17.7616 Y16.9434 
G01 X17.6702 Y16.8065 
G01 X17.5537 Y16.6900 
G01 X17.4884 Y16.6464 
G01 X17.4168 Y16.5985 
G01 X17.2646 Y16.5355 
G01 X17.1371 Y16.5101 
G01 X17.1031 Y16.5034 
G01 X16.3411 Y16.5034 
G01 X16.2657 Y16.4721 
G01 X16.2079 Y16.4143 
G01 X16.1766 Y16.3389 
G01 X16.1766 Y14.1411 
G01 X16.2079 Y14.0656 
G01 X16.2965 Y13.9770 
G01 X16.4130 Y13.8606 
G01 X16.5044 Y13.7236 
G01 X16.5675 Y13.5715 
G01 X16.5996 Y13.4100 
G01 X16.5996 Y10.2428 
G01 X16.7275 Y9.9339  
G01 X17.2935 Y9.3680  
G01 X17.4100 Y9.2515  
G01 X17.5014 Y9.1146  
G01 X17.5033 Y9.1102  
G01 X17.5645 Y8.9625  
G01 X17.5966 Y8.8010  
G01 X17.5966 Y8.6188  
G01 X17.8042 Y8.1177  
G01 X18.1877 Y7.7342  
G01 X18.6888 Y7.5266  
G01 X19.2312 Y7.5266  
G01 X19.7323 Y7.7342  
G01 X20.1158 Y8.1177  
G01 X20.3234 Y8.6188  
G01 X20.3234 Y9.1612  
G01 X20.1158 Y9.6623  
G01 X19.7323 Y10.0458 
G01 X19.2312 Y10.2534 
G01 X19.2137 Y10.2534 
G01 X19.1310 Y10.2534 
G01 X19.0490 Y10.2534 
G01 X18.9688 Y10.2694 
G01 X18.8875 Y10.2855 
G01 X18.8096 Y10.3178 
G01 X18.7354 Y10.3485 
G01 X18.6694 Y10.3926 
G01 X18.5985 Y10.4400 
G01 X18.5398 Y10.4987 
G01 X18.4820 Y10.5565 
G01 X18.4670 Y10.5715 
G01 X18.4265 Y10.6322 
G01 X18.3755 Y10.7084 
G01 X18.3379 Y10.7992 
G01 X18.3125 Y10.8605 
G01 X18.2933 Y10.9570 
G01 X18.2804 Y11.0220 
G01 X18.2804 Y11.1042 
G01 X18.2804 Y13.4100 
G01 X18.3125 Y13.5715 
G01 X18.3755 Y13.7236 
G01 X18.4670 Y13.8606 
G01 X18.7030 Y14.0965 
G01 X18.8194 Y14.2130 
G01 X18.9564 Y14.3044 
G01 X19.1085 Y14.3675 
G01 X19.2700 Y14.3996 
G01 X20.3972 Y14.3996 
G01 X20.7060 Y14.5275 
G01 X21.0018 Y14.8233 
G01 X22.2125 Y16.0339 
G01 X22.2197 Y16.0515 
G01 X22.2758 Y16.1355 
G01 X22.3112 Y16.1885 
G01 X22.3704 Y16.2476 
G01 X22.4277 Y16.3049 
G01 X22.4964 Y16.3509 
G01 X22.5646 Y16.3964 
G01 X22.6213 Y16.4199 
G01 X22.7167 Y16.4594 
G01 X22.8167 Y16.4793 
G01 X22.8782 Y16.4916 
G01 X22.9615 Y16.4916 
G01 X23.0429 Y16.4916 
G01 X23.0760 Y16.4850 
G01 X23.2044 Y16.4594 
G01 X23.2801 Y16.4281 
G01 X23.3566 Y16.3964 
G01 X23.4405 Y16.3404 
G01 X23.4935 Y16.3049 
G01 X23.5526 Y16.2458 
G01 X23.6099 Y16.1885 
G01 X23.6559 Y16.1197 
G01 X23.7014 Y16.0516 
G01 X23.7249 Y15.9949 
G01 X23.7645 Y15.8994 
G01 X23.7843 Y15.7995 
G01 X23.7966 Y15.7379 
G01 X23.7966 Y15.6547 
G01 X23.7966 Y15.5732 
G01 X23.7966 Y14.9887 
G01 X23.9975 Y14.5038 
G01 X24.0097 Y14.4743 
G01 X24.0605 Y14.3517 
G01 X24.0926 Y14.1901 
G01 X24.0926 Y11.0071 
G01 X24.0605 Y10.8455 
G01 X23.9975 Y10.6934 
G01 X23.9060 Y10.5565 
G01 X23.7895 Y10.4400 
G01 X23.6526 Y10.3485 
G01 X23.5005 Y10.2855 
G01 X23.3389 Y10.2534 
G01 X22.7611 Y10.2534 
G01 X22.6856 Y10.2221 
G01 X22.6279 Y10.1643 
G01 X22.5966 Y10.0889 
G01 X22.5966 Y7.6911  
G01 X22.6279 Y7.6156  
G01 X22.6903 Y7.5532  
G01 X22.8165 Y7.4689  
G01 X22.9330 Y7.3524  
G01 X23.0245 Y7.2155  
G01 X23.0263 Y7.2111  
G01 X23.0875 Y7.0634  
G01 X23.1196 Y6.9019  
G01 X23.1196 Y5.4041  
G01 X23.0875 Y5.2425  
G01 X23.0245 Y5.0904  
G01 X22.9330 Y4.9535  
G01 X22.8165 Y4.8370  
G01 X22.6796 Y4.7455  
G01 X22.5275 Y4.6825  
G01 X22.3659 Y4.6504  
G01 X6.8720  Y4.6504  
G01 X6.7105  Y4.6825  
G01 X6.5584  Y4.7455  
G01 X6.4215  Y4.8370  
G01 X6.1335  Y5.1250  
G01 X6.0170  Y5.2415  
G01 X5.9255  Y5.3784  
G01 X5.8625  Y5.5305  
G01 X5.8304  Y5.6920  
G01 X5.8304  Y8.1719  
G01 X5.8625  Y8.3334  
G01 X5.9255  Y8.4855  
G01 X5.9292  Y8.4910  
G01 X6.0170  Y8.6224  
G01 X6.1335  Y8.7389  
G01 X6.1362  Y8.7407  
G01 X6.2597  Y8.8232  
G01 X6.3221  Y8.8856  
G01 X6.3534  Y8.9611  
G01 X6.3534  Y11.3589 
G01 X6.3221  Y11.4343 
G01 X6.2643  Y11.4921 
G01 X6.1889  Y11.5234 
G01 X3.7911  Y11.5234 
G01 X3.7156  Y11.4921 
G01 X3.6579  Y11.4343 
G01 X3.6266  Y11.3589 
G01 X3.6266  Y8.9611  
G01 X3.6579  Y8.8856  
G01 X3.7203  Y8.8232  
G01 X3.8465  Y8.7389  
G01 X3.9630  Y8.6224  
G01 X4.0545  Y8.4855  
G01 X4.0563  Y8.4811  
G01 X4.1175  Y8.3334  
G01 X4.1496  Y8.1719  
G01 X4.1496  Y4.9128  
G01 X4.2775  Y4.6040  
G01 X5.3717  Y3.5098  
G01 X5.7839  Y3.0975  
G00 Z10.0000 
G00 X5.8640  Y3.0691  
G01 Z-0.1000 F254   
G01 X5.7271  Y3.1606  F80    
G01 X5.6106  Y3.2771  
G01 X4.3406  Y4.5471  
G01 X4.2491  Y4.6840  
G01 X4.1861  Y4.8361  
G01 X4.1540  Y4.9977  
G01 X4.1540  Y8.8010  
G01 X3.7920  Y8.8010  
G01 X3.7181  Y8.8316  
G01 X3.6616  Y8.8881  
G01 X3.6310  Y8.9620  
G01 X3.6310  Y11.3580 
G01 X3.6616  Y11.4319 
G01 X3.7181  Y11.4884 
G01 X3.7920  Y11.5190 
G01 X6.1880  Y11.5190 
G01 X6.2619  Y11.4884 
G01 X6.3184  Y11.4319 
G01 X6.3490  Y11.3580 
G01 X6.3490  Y8.9620  
G01 X6.3184  Y8.8881  
G01 X6.2619  Y8.8316  
G01 X6.1880  Y8.8010  
G01 X5.8260  Y8.8010  
G01 X5.8260  Y5.4263  
G01 X6.6063  Y4.6460  
G01 X23.1240 Y4.6460  
G01 X23.1240 Y7.5310  
G01 X22.7620 Y7.5310  
G01 X22.6881 Y7.5616  
G01 X22.6316 Y7.6181  
G01 X22.6010 Y7.6920  
G01 X22.6010 Y10.0880 
G01 X22.6316 Y10.1619 
G01 X22.6881 Y10.2184 
G01 X22.7620 Y10.2490 
G01 X23.9571 Y10.2490 
G01 X24.0970 Y10.3889 
G01 X24.0970 Y14.4235 
G01 X23.9832 Y14.5801 
G01 X23.8932 Y14.7567 
G01 X23.8320 Y14.9452 
G01 X23.8010 Y15.1409 
G01 X23.8010 Y15.3391 
G01 X23.8320 Y15.5348 
G01 X23.8932 Y15.7233 
G01 X23.9832 Y15.8999 
G01 X24.0997 Y16.0602 
G01 X24.2398 Y16.2003 
G01 X24.4001 Y16.3168 
G01 X24.5767 Y16.4068 
G01 X24.7652 Y16.4680 
G01 X24.9609 Y16.4990 
G01 X25.1591 Y16.4990 
G01 X25.3548 Y16.4680 
G01 X25.5433 Y16.4068 
G01 X25.7199 Y16.3168 
G01 X25.8802 Y16.2003 
G01 X26.0203 Y16.0602 
G01 X26.1368 Y15.8999 
G01 X26.2268 Y15.7233 
G01 X26.2880 Y15.5348 
G01 X26.3190 Y15.3391 
G01 X26.3190 Y15.1409 
G01 X26.2880 Y14.9452 
G01 X26.2268 Y14.7567 
G01 X26.1368 Y14.5801 
G01 X26.0230 Y14.4235 
G01 X26.0230 Y9.8951  
G01 X25.9860 Y9.7091  
G01 X25.9134 Y9.5338  
G01 X25.8080 Y9.3761  
G01 X25.3190 Y8.8871  
G01 X25.3190 Y7.6920  
G01 X25.2884 Y7.6181  
G01 X25.2319 Y7.5616  
G01 X25.1580 Y7.5310  
G01 X24.7960 Y7.5310  
G01 X24.7960 Y4.6460  
G01 X39.6340 Y4.6460  
G01 X39.6340 Y7.5310  
G01 X39.2720 Y7.5310  
G01 X39.1981 Y7.5616  
G01 X39.1416 Y7.6181  
G01 X39.1110 Y7.6920  
G01 X39.1110 Y10.0880 
G01 X39.1416 Y10.1619 
G01 X39.1981 Y10.2184 
G01 X39.2720 Y10.2490 
G01 X40.4671 Y10.2490 
G01 X40.6070 Y10.3889 
G01 X40.6070 Y14.4235 
G01 X40.4932 Y14.5801 
G01 X40.4032 Y14.7567 
G01 X40.3420 Y14.9452 
G01 X40.3110 Y15.1409 
G01 X40.3110 Y15.3391 
G01 X40.3420 Y15.5348 
G01 X40.4032 Y15.7233 
G01 X40.4932 Y15.8999 
G01 X40.6097 Y16.0602 
G01 X40.7498 Y16.2003 
G01 X40.9101 Y16.3168 
G01 X41.0867 Y16.4068 
G01 X41.2752 Y16.4680 
G01 X41.4709 Y16.4990 
G01 X41.6691 Y16.4990 
G01 X41.8648 Y16.4680 
G01 X42.0533 Y16.4068 
G01 X42.2299 Y16.3168 
G01 X42.3902 Y16.2003 
G01 X42.5303 Y16.0602 
G01 X42.6468 Y15.8999 
G01 X42.7368 Y15.7233 
G01 X42.7980 Y15.5348 
G01 X42.8290 Y15.3391 
G01 X42.8290 Y15.1409 
G01 X42.7980 Y14.9452 
G01 X42.7368 Y14.7567 
G01 X42.6468 Y14.5801 
G01 X42.5330 Y14.4235 
G01 X42.5330 Y9.8951  
G01 X42.4960 Y9.7091  
G01 X42.4234 Y9.5338  
G01 X42.3180 Y9.3761  
G01 X41.8290 Y8.8871  
G01 X41.8290 Y7.6920  
G01 X41.7984 Y7.6181  
G01 X41.7419 Y7.5616  
G01 X41.6680 Y7.5310  
G01 X41.3060 Y7.5310  
G01 X41.3060 Y4.6460  
G01 X56.1440 Y4.6460  
G01 X56.1440 Y7.5310  
G01 X55.7820 Y7.5310  
G01 X55.7081 Y7.5616  
G01 X55.6516 Y7.6181  
G01 X55.6210 Y7.6920  
G01 X55.6210 Y10.0880 
G01 X55.6516 Y10.1619 
G01 X55.7081 Y10.2184 
G01 X55.7820 Y10.2490 
G01 X56.9771 Y10.2490 
G01 X57.3670 Y10.6389 
G01 X57.3670 Y14.4235 
G01 X57.2532 Y14.5801 
G01 X57.1632 Y14.7567 
G01 X57.1020 Y14.9452 
G01 X57.0710 Y15.1409 
G01 X57.0710 Y15.3391 
G01 X57.1020 Y15.5348 
G01 X57.1632 Y15.7233 
G01 X57.2532 Y15.8999 
G01 X57.3697 Y16.0602 
G01 X57.5098 Y16.2003 
G01 X57.6701 Y16.3168 
G01 X57.8467 Y16.4068 
G01 X58.0352 Y16.4680 
G01 X58.2309 Y16.4990 
G01 X58.4291 Y16.4990 
G01 X58.6248 Y16.4680 
G01 X58.8133 Y16.4068 
G01 X58.9899 Y16.3168 
G01 X59.1502 Y16.2003 
G01 X59.2903 Y16.0602 
G01 X59.4068 Y15.8999 
G01 X59.4968 Y15.7233 
G01 X59.5580 Y15.5348 
G01 X59.5890 Y15.3391 
G01 X59.5890 Y15.1409 
G01 X59.5580 Y14.9452 
G01 X59.4968 Y14.7567 
G01 X59.4068 Y14.5801 
G01 X59.2930 Y14.4235 
G01 X59.2930 Y10.1451 
G01 X59.2560 Y9.9591  
G01 X59.1834 Y9.7838  
G01 X59.0780 Y9.6261  
G01 X58.3390 Y8.8871  
G01 X58.3390 Y7.6920  
G01 X58.3084 Y7.6181  
G01 X58.2519 Y7.5616  
G01 X58.1780 Y7.5310  
G01 X57.8160 Y7.5310  
G01 X57.8160 Y4.6460  
G01 X71.9537 Y4.6460  
G01 X72.7340 Y5.4263  
G01 X72.7340 Y7.5310  
G01 X72.2920 Y7.5310  
G01 X72.2181 Y7.5616  
G01 X72.1616 Y7.6181  
G01 X72.1310 Y7.6920  
G01 X72.1310 Y10.0880 
G01 X72.1616 Y10.1619 
G01 X72.2181 Y10.2184 
G01 X72.2920 Y10.2490 
G01 X73.4871 Y10.2490 
G01 X73.6270 Y10.3889 
G01 X73.6270 Y14.4235 
G01 X73.5132 Y14.5801 
G01 X73.4232 Y14.7567 
G01 X73.3620 Y14.9452 
G01 X73.3310 Y15.1409 
G01 X73.3310 Y15.3391 
G01 X73.3620 Y15.5348 
G01 X73.4232 Y15.7233 
G01 X73.5132 Y15.8999 
G01 X73.6297 Y16.0602 
G01 X73.7698 Y16.2003 
G01 X73.9301 Y16.3168 
G01 X74.1067 Y16.4068 
G01 X74.2952 Y16.4680 
G01 X74.4909 Y16.4990 
G01 X74.6891 Y16.4990 
G01 X74.8848 Y16.4680 
G01 X75.0733 Y16.4068 
G01 X75.2499 Y16.3168 
G01 X75.4102 Y16.2003 
G01 X75.5345 Y16.0760 
G01 X79.5737 Y16.0760 
G01 X80.3540 Y16.8563 
G01 X80.3540 Y60.4867 
G01 X79.3197 Y61.5210 
G01 X69.3260 Y61.5210 
G01 X69.3260 Y58.5090 
G01 X69.6880 Y58.5090 
G01 X69.7619 Y58.4784 
G01 X69.8184 Y58.4219 
G01 X69.8490 Y58.3480 
G01 X69.8490 Y55.9520 
G01 X69.8184 Y55.8781 
G01 X69.7619 Y55.8216 
G01 X69.6880 Y55.7910 
G01 X68.3133 Y55.7910 
G01 X68.0560 Y55.5337 
G01 X68.0560 Y51.7445 
G01 X68.1803 Y51.6202 
G01 X68.2968 Y51.4599 
G01 X68.3868 Y51.2833 
G01 X68.4480 Y51.0948 
G01 X68.4790 Y50.8991 
G01 X68.4790 Y50.7009 
G01 X68.4480 Y50.5052 
G01 X68.3868 Y50.3167 
G01 X68.2968 Y50.1401 
G01 X68.1803 Y49.9798 
G01 X68.0402 Y49.8397 
G01 X67.8799 Y49.7232 
G01 X67.7033 Y49.6332 
G01 X67.5148 Y49.5720 
G01 X67.3191 Y49.5410 
G01 X67.1209 Y49.5410 
G01 X66.9252 Y49.5720 
G01 X66.7367 Y49.6332 
G01 X66.5601 Y49.7232 
G01 X66.3998 Y49.8397 
G01 X66.2597 Y49.9798 
G01 X66.1432 Y50.1401 
G01 X66.0532 Y50.3167 
G01 X65.9920 Y50.5052 
G01 X65.9610 Y50.7009 
G01 X65.9610 Y50.8991 
G01 X65.9920 Y51.0948 
G01 X66.0532 Y51.2833 
G01 X66.1432 Y51.4599 
G01 X66.2597 Y51.6202 
G01 X66.3840 Y51.7445 
G01 X66.3840 Y55.9623 
G01 X66.4161 Y56.1238 
G01 X66.4791 Y56.2760 
G01 X66.5706 Y56.4129 
G01 X67.1310 Y56.9733 
G01 X67.1310 Y58.3480 
G01 X67.1616 Y58.4219 
G01 X67.2181 Y58.4784 
G01 X67.2920 Y58.5090 
G01 X67.6540 Y58.5090 
G01 X67.6540 Y61.5210 
G01 X52.8160 Y61.5210 
G01 X52.8160 Y58.5090 
G01 X53.1780 Y58.5090 
G01 X53.2519 Y58.4784 
G01 X53.3084 Y58.4219 
G01 X53.3390 Y58.3480 
G01 X53.3390 Y55.9520 
G01 X53.3084 Y55.8781 
G01 X53.2519 Y55.8216 
G01 X53.1780 Y55.7910 
G01 X51.8033 Y55.7910 
G01 X51.5460 Y55.5337 
G01 X51.5460 Y51.7445 
G01 X51.6703 Y51.6202 
G01 X51.7868 Y51.4599 
G01 X51.8768 Y51.2833 
G01 X51.9380 Y51.0948 
G01 X51.9690 Y50.8991 
G01 X51.9690 Y50.7009 
G01 X51.9380 Y50.5052 
G01 X51.8768 Y50.3167 
G01 X51.7868 Y50.1401 
G01 X51.6703 Y49.9798 
G01 X51.5302 Y49.8397 
G01 X51.3699 Y49.7232 
G01 X51.1933 Y49.6332 
G01 X51.0048 Y49.5720 
G01 X50.8091 Y49.5410 
G01 X50.6109 Y49.5410 
G01 X50.4152 Y49.5720 
G01 X50.2267 Y49.6332 
G01 X50.0501 Y49.7232 
G01 X49.8898 Y49.8397 
G01 X49.7497 Y49.9798 
G01 X49.6332 Y50.1401 
G01 X49.5432 Y50.3167 
G01 X49.4820 Y50.5052 
G01 X49.4510 Y50.7009 
G01 X49.4510 Y50.8991 
G01 X49.4820 Y51.0948 
G01 X49.5432 Y51.2833 
G01 X49.6332 Y51.4599 
G01 X49.7497 Y51.6202 
G01 X49.8740 Y51.7445 
G01 X49.8740 Y55.9623 
G01 X49.9061 Y56.1238 
G01 X49.9691 Y56.2760 
G01 X50.0606 Y56.4129 
G01 X50.6210 Y56.9733 
G01 X50.6210 Y58.3480 
G01 X50.6516 Y58.4219 
G01 X50.7081 Y58.4784 
G01 X50.7820 Y58.5090 
G01 X51.1440 Y58.5090 
G01 X51.1440 Y61.5210 
G01 X36.3060 Y61.5210 
G01 X36.3060 Y58.5090 
G01 X36.6680 Y58.5090 
G01 X36.7419 Y58.4784 
G01 X36.7984 Y58.4219 
G01 X36.8290 Y58.3480 
G01 X36.8290 Y55.9520 
G01 X36.7984 Y55.8781 
G01 X36.7419 Y55.8216 
G01 X36.6680 Y55.7910 
G01 X35.2933 Y55.7910 
G01 X35.0360 Y55.5337 
G01 X35.0360 Y51.7445 
G01 X35.1603 Y51.6202 
G01 X35.2768 Y51.4599 
G01 X35.3668 Y51.2833 
G01 X35.4280 Y51.0948 
G01 X35.4590 Y50.8991 
G01 X35.4590 Y50.7009 
G01 X35.4280 Y50.5052 
G01 X35.3668 Y50.3167 
G01 X35.2768 Y50.1401 
G01 X35.1603 Y49.9798 
G01 X35.0202 Y49.8397 
G01 X34.8599 Y49.7232 
G01 X34.6833 Y49.6332 
G01 X34.4948 Y49.5720 
G01 X34.2991 Y49.5410 
G01 X34.1009 Y49.5410 
G01 X33.9052 Y49.5720 
G01 X33.7167 Y49.6332 
G01 X33.5401 Y49.7232 
G01 X33.3798 Y49.8397 
G01 X33.2397 Y49.9798 
G01 X33.1232 Y50.1401 
G01 X33.0332 Y50.3167 
G01 X32.9720 Y50.5052 
G01 X32.9410 Y50.7009 
G01 X32.9410 Y50.8991 
G01 X32.9720 Y51.0948 
G01 X33.0332 Y51.2833 
G01 X33.1232 Y51.4599 
G01 X33.2397 Y51.6202 
G01 X33.3640 Y51.7445 
G01 X33.3640 Y55.9623 
G01 X33.3961 Y56.1238 
G01 X33.4591 Y56.2760 
G01 X33.5506 Y56.4129 
G01 X34.1110 Y56.9733 
G01 X34.1110 Y58.3480 
G01 X34.1416 Y58.4219 
G01 X34.1981 Y58.4784 
G01 X34.2720 Y58.5090 
G01 X34.6340 Y58.5090 
G01 X34.6340 Y61.5210 
G01 X19.7960 Y61.5210 
G01 X19.7960 Y58.5090 
G01 X20.1580 Y58.5090 
G01 X20.2319 Y58.4784 
G01 X20.2884 Y58.4219 
G01 X20.3190 Y58.3480 
G01 X20.3190 Y55.9520 
G01 X20.2884 Y55.8781 
G01 X20.2319 Y55.8216 
G01 X20.1580 Y55.7910 
G01 X18.7833 Y55.7910 
G01 X18.5260 Y55.5337 
G01 X18.5260 Y51.7445 
G01 X18.6503 Y51.6202 
G01 X18.7668 Y51.4599 
G01 X18.8568 Y51.2833 
G01 X18.9180 Y51.0948 
G01 X18.9490 Y50.8991 
G01 X18.9490 Y50.7009 
G01 X18.9180 Y50.5052 
G01 X18.8568 Y50.3167 
G01 X18.7668 Y50.1401 
G01 X18.6503 Y49.9798 
G01 X18.5102 Y49.8397 
G01 X18.3499 Y49.7232 
G01 X18.1733 Y49.6332 
G01 X17.9848 Y49.5720 
G01 X17.7891 Y49.5410 
G01 X17.5909 Y49.5410 
G01 X17.3952 Y49.5720 
G01 X17.2067 Y49.6332 
G01 X17.0301 Y49.7232 
G01 X16.8698 Y49.8397 
G01 X16.7297 Y49.9798 
G01 X16.6132 Y50.1401 
G01 X16.5232 Y50.3167 
G01 X16.4620 Y50.5052 
G01 X16.4310 Y50.7009 
G01 X16.4310 Y50.8991 
G01 X16.4620 Y51.0948 
G01 X16.5232 Y51.2833 
G01 X16.6132 Y51.4599 
G01 X16.7297 Y51.6202 
G01 X16.8540 Y51.7445 
G01 X16.8540 Y55.9623 
G01 X16.8861 Y56.1238 
G01 X16.9491 Y56.2760 
G01 X17.0406 Y56.4129 
G01 X17.6010 Y56.9733 
G01 X17.6010 Y58.3480 
G01 X17.6316 Y58.4219 
G01 X17.6881 Y58.4784 
G01 X17.7620 Y58.5090 
G01 X18.1240 Y58.5090 
G01 X18.1240 Y61.5210 
G01 X6.7333  Y61.5210 
G01 X5.8260  Y60.6137 
G01 X5.8260  Y56.8724 
G01 X5.8753  Y56.8366 
G01 X6.0266  Y56.6853 
G01 X6.1523  Y56.5123 
G01 X6.2494  Y56.3217 
G01 X6.3155  Y56.1182 
G01 X6.3490  Y55.9070 
G01 X6.3490  Y55.6930 
G01 X6.3155  Y55.4818 
G01 X6.2494  Y55.2783 
G01 X6.1523  Y55.0877 
G01 X6.0266  Y54.9147 
G01 X5.8753  Y54.7634 
G01 X5.7023  Y54.6377 
G01 X5.5117  Y54.5406 
G01 X5.3082  Y54.4745 
G01 X5.0970  Y54.4410 
G01 X4.8830  Y54.4410 
G01 X4.6718  Y54.4745 
G01 X4.4683  Y54.5406 
G01 X4.2777  Y54.6377 
G01 X4.1047  Y54.7634 
G01 X3.9534  Y54.9147 
G01 X3.8277  Y55.0877 
G01 X3.7306  Y55.2783 
G01 X3.6645  Y55.4818 
G01 X3.6310  Y55.6930 
G01 X3.6310  Y55.9070 
G01 X3.6645  Y56.1182 
G01 X3.7306  Y56.3217 
G01 X3.8277  Y56.5123 
G01 X3.9534  Y56.6853 
G01 X4.1047  Y56.8366 
G01 X4.1540  Y56.8724 
G01 X4.1540  Y61.0423 
G01 X4.1861  Y61.2039 
G01 X4.2491  Y61.3560 
G01 X4.3406  Y61.4929 
G01 X5.8541  Y63.0064 
G01 X5.9910  Y63.0979 
G01 X6.1431  Y63.1609 
G01 X6.3047  Y63.1930 
G01 X79.7483 Y63.1930 
G01 X79.9099 Y63.1609 
G01 X80.0620 Y63.0979 
G01 X80.1989 Y63.0064 
G01 X80.3154 Y62.8899 
G01 X81.8394 Y61.3659 
G01 X81.9309 Y61.2290 
G01 X81.9939 Y61.0769 
G01 X82.0260 Y60.9153 
G01 X82.0260 Y16.4277 
G01 X81.9939 Y16.2661 
G01 X81.9309 Y16.1140 
G01 X81.8394 Y15.9771 
G01 X80.5694 Y14.7071 
G01 X80.4529 Y14.5906 
G01 X80.3160 Y14.4991 
G01 X80.1638 Y14.4361 
G01 X80.0023 Y14.4040 
G01 X75.5530 Y14.4040 
G01 X75.5530 Y9.8951  
G01 X75.5160 Y9.7091  
G01 X75.4434 Y9.5338  
G01 X75.3380 Y9.3761  
G01 X74.8490 Y8.8871  
G01 X74.8490 Y7.6920  
G01 X74.8184 Y7.6181  
G01 X74.7619 Y7.5616  
G01 X74.6880 Y7.5310  
G01 X74.4060 Y7.5310  
G01 X74.4060 Y4.9977  
G01 X74.3739 Y4.8361  
G01 X74.3109 Y4.6840  
G01 X74.2194 Y4.5471  
G01 X74.1029 Y4.4306  
G01 X72.8329 Y3.1606  
G01 X72.6960 Y3.0691  
G01 X72.5439 Y3.0061  
G01 X72.3823 Y2.9740  
G01 X6.1777  Y2.9740  
G01 X6.0161  Y3.0061  
G01 X5.8640  Y3.0691  
G00 Z10.0000 
G00 X5.8260  Y14.0830 
G01 Z-0.1000 F254   
G01 X5.8909  Y14.1327 F80    
G01 X6.0172  Y14.2591 
G01 X6.0670  Y14.3240 
G01 X6.0624  Y14.3240 
G01 X6.0266  Y14.2747 
G01 X5.8753  Y14.1234 
G01 X5.8260  Y14.0876 
G01 X5.8260  Y14.0830 
G00 Z10.0000 
G00 X4.1540  Y14.0830 
G01 Z-0.1000 F254   
G01 X4.1540  Y14.0876 F80    
G01 X4.1047  Y14.1234 
G01 X3.9534  Y14.2747 
G01 X3.9176  Y14.3240 
G01 X3.9130  Y14.3240 
G01 X3.9627  Y14.2591 
G01 X4.0891  Y14.1327 
G01 X4.1540  Y14.0830 
G00 Z10.0000 
G00 X3.9176  Y15.9960 
G01 Z-0.1000 F254   
G01 X3.9534  Y16.0453 F80    
G01 X4.1047  Y16.1966 
G01 X4.1540  Y16.2324 
G01 X4.1540  Y16.2370 
G01 X4.0891  Y16.1872 
G01 X3.9627  Y16.0609 
G01 X3.9130  Y15.9960 
G01 X3.9176  Y15.9960 
G00 Z10.0000 
G00 X6.0624  Y15.9960 
G01 Z-0.1000 F254   
G01 X6.0670  Y15.9960 F80    
G01 X6.0172  Y16.0609 
G01 X5.8909  Y16.1872 
G01 X5.8260  Y16.2370 
G01 X5.8260  Y16.2324 
G01 X5.8753  Y16.1966 
G01 X6.0266  Y16.0453 
G01 X6.0624  Y15.9960 
G00 Z10.0000 
G00 X11.4902 Y16.0462 
G01 Z-0.1000 F254   
G01 X11.8475 Y15.6888 F80    
G01 X11.9640 Y15.5724 
G01 X12.0555 Y15.4355 
G01 X12.0573 Y15.4311 
G01 X12.1185 Y15.2833 
G01 X12.1506 Y15.1218 
G01 X12.1506 Y11.5841 
G01 X12.1185 Y11.4226 
G01 X12.0555 Y11.2704 
G01 X11.9640 Y11.1335 
G01 X11.6391 Y10.8087 
G01 X11.4648 Y10.3878 
G01 X11.4648 Y9.9322  
G01 X11.6387 Y9.5125  
G01 X11.6576 Y9.4980  
G01 X11.6938 Y9.4566  
G01 X11.7327 Y9.4178  
G01 X11.7480 Y9.3949  
G01 X11.7661 Y9.3741  
G01 X11.7936 Y9.3265  
G01 X11.8242 Y9.2808  
G01 X11.8347 Y9.2554  
G01 X11.8485 Y9.2315  
G01 X11.8661 Y9.1795  
G01 X11.8872 Y9.1287  
G01 X11.8926 Y9.1017  
G01 X11.9014 Y9.0756  
G01 X11.9086 Y9.0211  
G01 X11.9193 Y8.9672  
G01 X11.9193 Y8.9396  
G01 X11.9229 Y8.9123  
G01 X11.9193 Y8.8575  
G01 X11.9193 Y8.8025  
G01 X11.9139 Y8.7755  
G01 X11.9121 Y8.7480  
G01 X11.8979 Y8.6949  
G01 X11.8872 Y8.6410  
G01 X11.8766 Y8.6155  
G01 X11.8695 Y8.5889  
G01 X11.8452 Y8.5397  
G01 X11.8242 Y8.4889  
G01 X11.8088 Y8.4659  
G01 X11.8040 Y8.4560  
G01 X11.8327 Y8.4560  
G01 X11.8668 Y8.4901  
G01 X12.0121 Y8.5957  
G01 X12.1721 Y8.6772  
G01 X12.3429 Y8.7327  
G01 X12.5202 Y8.7608  
G01 X12.6998 Y8.7608  
G01 X12.8771 Y8.7327  
G01 X13.0479 Y8.6772  
G01 X13.2079 Y8.5957  
G01 X13.3532 Y8.4901  
G01 X13.3873 Y8.4560  
G01 X13.4160 Y8.4560  
G01 X13.4111 Y8.4659  
G01 X13.3958 Y8.4889  
G01 X13.3748 Y8.5397  
G01 X13.3505 Y8.5889  
G01 X13.3434 Y8.6155  
G01 X13.3328 Y8.6410  
G01 X13.3221 Y8.6949  
G01 X13.3079 Y8.7480  
G01 X13.3061 Y8.7755  
G01 X13.3007 Y8.8025  
G01 X13.3007 Y8.8575  
G01 X13.2971 Y8.9123  
G01 X13.3007 Y8.9396  
G01 X13.3007 Y8.9672  
G01 X13.3114 Y9.0211  
G01 X13.3186 Y9.0756  
G01 X13.3274 Y9.1017  
G01 X13.3328 Y9.1287  
G01 X13.3539 Y9.1795  
G01 X13.3715 Y9.2315  
G01 X13.3853 Y9.2554  
G01 X13.3958 Y9.2808  
G01 X13.4264 Y9.3265  
G01 X13.4538 Y9.3741  
G01 X13.4720 Y9.3949  
G01 X13.4873 Y9.4178  
G01 X13.5262 Y9.4566  
G01 X13.5624 Y9.4980  
G01 X13.5813 Y9.5125  
G01 X13.7552 Y9.9322  
G01 X13.7552 Y10.3878 
G01 X13.5808 Y10.8087 
G01 X13.3725 Y11.0171 
G01 X13.2560 Y11.1335 
G01 X13.1645 Y11.2704 
G01 X13.1015 Y11.4226 
G01 X13.0694 Y11.5841 
G01 X13.0694 Y15.1218 
G01 X13.1015 Y15.2833 
G01 X13.1645 Y15.4355 
G01 X13.1682 Y15.4410 
G01 X13.2560 Y15.5724 
G01 X13.2682 Y15.5846 
G01 X13.3725 Y15.6888 
G01 X13.7298 Y16.0462 
G01 X13.7298 Y16.9738 
G01 X13.0738 Y17.6298 
G01 X12.1462 Y17.6298 
G01 X11.4902 Y16.9738 
G01 X11.4902 Y16.0462 
G00 Z10.0000 
G00 X11.4946 Y16.0480 
G01 Z-0.1000 F254   
G01 X11.4946 Y16.9720 F80    
G01 X12.1480 Y17.6254 
G01 X13.0720 Y17.6254 
G01 X13.7254 Y16.9720 
G01 X13.7254 Y16.0480 
G01 X13.0720 Y15.3946 
G01 X13.0650 Y15.3946 
G01 X13.0650 Y11.2085 
G01 X13.2079 Y11.1357 
G01 X13.3532 Y11.0302 
G01 X13.4802 Y10.9032 
G01 X13.5857 Y10.7579 
G01 X13.6672 Y10.5979 
G01 X13.7227 Y10.4271 
G01 X13.7508 Y10.2498 
G01 X13.7508 Y10.0702 
G01 X13.7227 Y9.8929  
G01 X13.6672 Y9.7221  
G01 X13.5857 Y9.5621  
G01 X13.4802 Y9.4168  
G01 X13.3532 Y9.2898  
G01 X13.2079 Y9.1843  
G01 X13.0479 Y9.1028  
G01 X12.8771 Y9.0473  
G01 X12.6998 Y9.0192  
G01 X12.5202 Y9.0192  
G01 X12.3429 Y9.0473  
G01 X12.1721 Y9.1028  
G01 X12.0121 Y9.1843  
G01 X11.8668 Y9.2898  
G01 X11.7398 Y9.4168  
G01 X11.6343 Y9.5621  
G01 X11.5528 Y9.7221  
G01 X11.4973 Y9.8929  
G01 X11.4692 Y10.0702 
G01 X11.4692 Y10.2498 
G01 X11.4973 Y10.4271 
G01 X11.5528 Y10.5979 
G01 X11.6343 Y10.7579 
G01 X11.7398 Y10.9032 
G01 X11.8668 Y11.0302 
G01 X12.0121 Y11.1357 
G01 X12.1550 Y11.2085 
G01 X12.1550 Y15.3946 
G01 X12.1480 Y15.3946 
G01 X11.4946 Y16.0480 
G00 Z10.0000 
G00 X16.1810 Y16.3380 
G01 Z-0.1000 F254   
G01 X16.2116 Y16.4119 F80    
G01 X16.2681 Y16.4684 
G01 X16.3420 Y16.4990 
G01 X18.5380 Y16.4990 
G01 X18.6119 Y16.4684 
G01 X18.6684 Y16.4119 
G01 X18.6990 Y16.3380 
G01 X18.6990 Y16.0760 
G01 X19.8837 Y16.0760 
G01 X20.6640 Y16.8563 
G01 X20.6640 Y17.1489 
G01 X20.5717 Y17.2412 
G01 X20.4591 Y17.3961 
G01 X20.3722 Y17.5668 
G01 X20.3130 Y17.7490 
G01 X20.2830 Y17.9382 
G01 X20.2830 Y20.1618 
G01 X20.3130 Y20.3510 
G01 X20.3722 Y20.5332 
G01 X20.4591 Y20.7038 
G01 X20.5717 Y20.8588 
G01 X20.7072 Y20.9943 
G01 X20.8621 Y21.1069 
G01 X21.0328 Y21.1938 
G01 X21.2150 Y21.2530 
G01 X21.4042 Y21.2830 
G01 X21.5958 Y21.2830 
G01 X21.7850 Y21.2530 
G01 X21.9672 Y21.1938 
G01 X22.1378 Y21.1069 
G01 X22.2928 Y20.9943 
G01 X22.4283 Y20.8588 
G01 X22.5409 Y20.7038 
G01 X22.6278 Y20.5332 
G01 X22.6870 Y20.3510 
G01 X22.7170 Y20.1618 
G01 X22.7170 Y17.9382 
G01 X22.6870 Y17.7490 
G01 X22.6278 Y17.5668 
G01 X22.5409 Y17.3961 
G01 X22.4283 Y17.2412 
G01 X22.3360 Y17.1489 
G01 X22.3360 Y16.4277 
G01 X22.3039 Y16.2661 
G01 X22.2408 Y16.1140 
G01 X22.1494 Y15.9771 
G01 X20.8794 Y14.7071 
G01 X20.7629 Y14.5906 
G01 X20.6260 Y14.4991 
G01 X20.4738 Y14.4361 
G01 X20.3123 Y14.4040 
G01 X18.6990 Y14.4040 
G01 X18.6990 Y14.1420 
G01 X18.6684 Y14.0681 
G01 X18.6119 Y14.0116 
G01 X18.5380 Y13.9810 
G01 X18.2760 Y13.9810 
G01 X18.2760 Y10.7563 
G01 X18.7928 Y10.2395 
G01 X18.8530 Y10.2490 
G01 X19.0670 Y10.2490 
G01 X19.2782 Y10.2155 
G01 X19.4817 Y10.1494 
G01 X19.6723 Y10.0523 
G01 X19.8453 Y9.9266  
G01 X19.9966 Y9.7753  
G01 X20.1223 Y9.6023  
G01 X20.2194 Y9.4117  
G01 X20.2855 Y9.2082  
G01 X20.3190 Y8.9970  
G01 X20.3190 Y8.7830  
G01 X20.2855 Y8.5718  
G01 X20.2194 Y8.3683  
G01 X20.1223 Y8.1777  
G01 X19.9966 Y8.0047  
G01 X19.8453 Y7.8534  
G01 X19.6723 Y7.7277  
G01 X19.4817 Y7.6306  
G01 X19.2782 Y7.5645  
G01 X19.0670 Y7.5310  
G01 X18.8530 Y7.5310  
G01 X18.6418 Y7.5645  
G01 X18.4383 Y7.6306  
G01 X18.2477 Y7.7277  
G01 X18.0747 Y7.8534  
G01 X17.9234 Y8.0047  
G01 X17.7977 Y8.1777  
G01 X17.7006 Y8.3683  
G01 X17.6345 Y8.5718  
G01 X17.6010 Y8.7830  
G01 X17.6010 Y8.9970  
G01 X17.6105 Y9.0572  
G01 X16.7906 Y9.8771  
G01 X16.6991 Y10.0140 
G01 X16.6361 Y10.1661 
G01 X16.6040 Y10.3277 
G01 X16.6040 Y13.9810 
G01 X16.3420 Y13.9810 
G01 X16.2681 Y14.0116 
G01 X16.2116 Y14.0681 
G01 X16.1810 Y14.1420 
G01 X16.1810 Y16.3380 
G00 Z10.0000 
G00 X17.7386 Y19.8860 
G01 Z-0.1000 F254   
G01 X17.7430 Y19.8860 F80    
G01 X17.7430 Y20.1618 
G01 X17.7730 Y20.3510 
G01 X17.8322 Y20.5332 
G01 X17.9191 Y20.7038 
G01 X18.0317 Y20.8588 
G01 X18.1240 Y20.9511 
G01 X18.1240 Y20.9573 
G01 X18.0397 Y20.8730 
G01 X17.9423 Y20.7460 
G01 X17.8622 Y20.6074 
G01 X17.8009 Y20.4595 
G01 X17.7595 Y20.3048 
G01 X17.7386 Y20.1461 
G01 X17.7386 Y19.8860 
G00 Z10.0000 
G00 X16.8820 Y23.0146 
G01 Z-0.1000 F254   
G01 X15.9580 Y23.0146 F80    
G01 X15.6786 Y23.2940 
G01 X13.3514 Y23.2940 
G01 X13.0720 Y23.0146 
G01 X12.1480 Y23.0146 
G01 X11.8686 Y23.2940 
G01 X4.6051  Y23.2940 
G01 X4.5128  Y23.2017 
G01 X4.3578  Y23.0891 
G01 X4.1872  Y23.0022 
G01 X4.0050  Y22.9430 
G01 X3.8158  Y22.9130 
G01 X3.6242  Y22.9130 
G01 X3.4350  Y22.9430 
G01 X3.2528  Y23.0022 
G01 X3.0821  Y23.0891 
G01 X2.9272  Y23.2017 
G01 X2.7917  Y23.3372 
G01 X2.6791  Y23.4921 
G01 X2.5922  Y23.6628 
G01 X2.5330  Y23.8450 
G01 X2.5030  Y24.0342 
G01 X2.5030  Y24.2258 
G01 X2.5330  Y24.4150 
G01 X2.5922  Y24.5972 
G01 X2.6791  Y24.7678 
G01 X2.7917  Y24.9228 
G01 X2.9272  Y25.0583 
G01 X3.0821  Y25.1709 
G01 X3.2528  Y25.2578 
G01 X3.4350  Y25.3170 
G01 X3.6242  Y25.3470 
G01 X3.8158  Y25.3470 
G01 X4.0050  Y25.3170 
G01 X4.1872  Y25.2578 
G01 X4.3578  Y25.1709 
G01 X4.5128  Y25.0583 
G01 X4.6051  Y24.9660 
G01 X11.8686 Y24.9660 
G01 X12.1480 Y25.2454 
G01 X13.0720 Y25.2454 
G01 X13.3514 Y24.9660 
G01 X15.6786 Y24.9660 
G01 X15.9580 Y25.2454 
G01 X16.8820 Y25.2454 
G01 X17.5354 Y24.5920 
G01 X17.5354 Y23.6680 
G01 X16.8820 Y23.0146 
G00 Z10.0000 
G00 X15.4294 Y26.3059 
G01 Z-0.1000 F254   
G01 X15.3256 Y26.2460 F80    
G01 X15.2099 Y26.2150 
G01 X4.8518  Y26.2150 
G01 X4.8478  Y26.2028 
G01 X4.7609  Y26.0322 
G01 X4.6483  Y25.8772 
G01 X4.5128  Y25.7417 
G01 X4.3578  Y25.6291 
G01 X4.1872  Y25.5422 
G01 X4.0050  Y25.4830 
G01 X3.8158  Y25.4530 
G01 X3.6242  Y25.4530 
G01 X3.4350  Y25.4830 
G01 X3.2528  Y25.5422 
G01 X3.0821  Y25.6291 
G01 X2.9272  Y25.7417 
G01 X2.7917  Y25.8772 
G01 X2.6791  Y26.0322 
G01 X2.5922  Y26.2028 
G01 X2.5330  Y26.3850 
G01 X2.5030  Y26.5742 
G01 X2.5030  Y26.7658 
G01 X2.5330  Y26.9550 
G01 X2.5922  Y27.1372 
G01 X2.6791  Y27.3078 
G01 X2.7917  Y27.4628 
G01 X2.9272  Y27.5983 
