(.../pcb-gcode-3.6.2.4/pcb-gcode.ulp)
(Copyright 2005 - 2012 by John Johnson)
(See readme.txt for licensing terms.)
(This file generated from the board:)
(.../TIP120_breakout/TIP120_breakout.brd)
(Current profile is .../pcb-gcode-3.6.2.4/profiles/mach.pp  )
(This file generated 24/08/2017 23:10)
(Settings from pcb-machine.h)
(spindle on time = 3.0000)
(spindle speed = 20000.0000)
(tool change at 0.0000  0.0000  25.4000 )
(feed rate xy = F0     )
(feed rate z  = F508   )
(Z Axis Settings)
(  High     Up        Down     Drill)
(12.7000 	10.0000 	-0.1000 	-1.5000 )
(Settings from pcb-defaults.h)
(isolate min = 0.0010)
(isolate max = 0.0200)
(isolate step = 0.2000)
(Generated top outlines, top drill, )
(Unit of measure: mm)
( Tool|       Size       |  Min Sub |  Max Sub |   Count )
( T01 | 0.813mm 0.0320in | 0.0000in | 0.0000in |       0 )
( T02 | 1.016mm 0.0400in | 0.0000in | 0.0000in |       0 )
( T03 | 1.100mm 0.0433in | 0.0000in | 0.0000in |       0 )
( T04 | 1.300mm 0.0512in | 0.0000in | 0.0000in |       0 )
(Metric Mode)
G21
(Absolute Coordinates)
G90
S20000
G00 Z12.7000 
G00 X0.0000  Y0.0000  
M03
G04 P3.000000
M05
G00 Z25.4000 
M06 T01  ; 0.8128  
G00 Z10.0000 
M03
G04 P3.000000
G82 X12.6100 Y7.6200  Z-1.5000 F508   R10.0000 P1.000000
G82 X12.6100 Y10.1600 
G82 X12.6100 Y16.5100 
G82 X12.6100 Y24.1300 
G82 X16.4200 Y24.1300 
G82 X24.0400 Y24.1300 
G82 X29.5010 Y24.1300 
G82 X32.9300 Y24.1300 
G82 X40.5500 Y24.1300 
G82 X46.0110 Y24.1300 
G82 X49.4400 Y24.1300 
G82 X57.0600 Y24.1300 
G82 X62.6480 Y24.1300 
G82 X65.9500 Y24.1300 
G82 X73.5700 Y24.1300 
G82 X62.6480 Y16.5100 
G82 X62.6480 Y10.1600 
G82 X62.6480 Y7.6200  
G82 X46.0110 Y7.6200  
G82 X46.0110 Y10.1600 
G82 X46.0110 Y16.5100 
G82 X29.5010 Y16.5100 
G82 X29.5010 Y10.1600 
G82 X29.5010 Y7.6200  
G82 X29.5010 Y41.9100 
G82 X31.6600 Y41.9100 
G82 X39.2800 Y41.9100 
G82 X46.0110 Y41.9100 
G82 X48.1700 Y41.9100 
G82 X55.7900 Y41.9100 
G82 X62.6480 Y41.9100 
G82 X64.6800 Y41.9100 
G82 X72.3000 Y41.9100 
G82 X62.6480 Y49.5300 
G82 X62.6480 Y55.8800 
G82 X62.6480 Y58.4200 
G82 X46.0110 Y58.4200 
G82 X46.0110 Y55.8800 
G82 X46.0110 Y49.5300 
G82 X29.5010 Y49.5300 
G82 X29.5010 Y55.8800 
G82 X29.5010 Y58.4200 
G82 X12.6100 Y58.4200 
G82 X12.6100 Y55.8800 
G82 X12.6100 Y49.5300 
G82 X12.6100 Y41.9100 
G82 X15.1500 Y41.9100 
G82 X22.7700 Y41.9100 
M05
G00 Z25.4000 
G00 X0.0000  Y0.0000  
M06 T02  ; 1.0160  
G00 Z10.0000 
M03
G04 P3.000000
G82 X3.7200  Y21.5900 Z-1.5000 F508   R10.0000 P1.000000
G82 X3.7200  Y24.1300 
G82 X3.7200  Y26.6700 
G82 X3.7200  Y29.2100 
G82 X3.7200  Y31.7500 
G82 X3.7200  Y34.2900 
G82 X3.7200  Y36.8300 
G82 X3.7200  Y39.3700 
G82 X3.7200  Y41.9100 
G82 X3.7200  Y44.4500 
G82 X18.9600 Y46.9900 
G82 X21.5000 Y46.9900 
G82 X24.0400 Y46.9900 
G82 X35.4700 Y46.9900 
G82 X38.0100 Y46.9900 
G82 X40.5500 Y46.9900 
G82 X51.9800 Y46.9900 
G82 X54.5200 Y46.9900 
G82 X57.0600 Y46.9900 
G82 X68.4900 Y46.9900 
G82 X71.0300 Y46.9900 
G82 X73.5700 Y46.9900 
G82 X73.5700 Y19.0500 
G82 X71.0300 Y19.0500 
G82 X68.4900 Y19.0500 
G82 X57.0600 Y19.0500 
G82 X54.5200 Y19.0500 
G82 X51.9800 Y19.0500 
G82 X40.5500 Y19.0500 
G82 X38.0100 Y19.0500 
G82 X35.4700 Y19.0500 
G82 X24.0400 Y19.0500 
G82 X21.5000 Y19.0500 
G82 X18.9600 Y19.0500 
M05
G00 Z25.4000 
G00 X0.0000  Y0.0000  
M06 T03  ; 1.1000  
G00 Z10.0000 
M03
G04 P3.000000
G82 X17.4400 Y15.2400 Z-1.5000 F508   R10.0000 P1.000000
G82 X25.0600 Y15.2400 
G82 X33.9500 Y15.2400 
G82 X41.5700 Y15.2400 
G82 X50.7100 Y15.2400 
G82 X58.3300 Y15.2400 
G82 X66.9700 Y15.2400 
G82 X74.5900 Y15.2400 
G82 X74.8400 Y50.8000 
G82 X67.2200 Y50.8000 
G82 X58.3300 Y50.8000 
G82 X50.7100 Y50.8000 
G82 X41.8200 Y50.8000 
G82 X34.2000 Y50.8000 
G82 X25.3100 Y50.8000 
G82 X17.6900 Y50.8000 
M05
G00 Z25.4000 
G00 X0.0000  Y0.0000  
M06 T04  ; 1.3000  
G00 Z10.0000 
M03
G04 P3.000000
G82 X4.9900  Y10.1600 Z-1.5000 F508   R10.0000 P1.000000
G82 X4.9900  Y15.1600 
G82 X18.9600 Y8.8900  
G82 X23.9600 Y8.8900  
G82 X35.4700 Y8.8900  
G82 X40.4700 Y8.8900  
G82 X51.9800 Y8.8900  
G82 X56.9800 Y8.8900  
G82 X68.4900 Y8.8900  
G82 X73.4900 Y8.8900  
G82 X73.4900 Y57.1500 
G82 X68.4900 Y57.1500 
G82 X56.9800 Y57.1500 
G82 X51.9800 Y57.1500 
G82 X40.4700 Y57.1500 
G82 X35.4700 Y57.1500 
G82 X23.9600 Y57.1500 
G82 X18.9600 Y57.1500 
G82 X4.9900  Y55.8000 
G82 X4.9900  Y50.8000 
T01 
G00 Z12.7000 
M05
M02
